; generated by PrusaSlicer 2.5.0+win64 on 2022-09-25 at 10:31:36 UTC


;
;

;
;
; 

; external perimeters extrusion width = 0.45mm
; perimeters extrusion width = 0.45mm
; infill extrusion width = 0.45mm
; solid infill extrusion width = 0.45mm
; top infill extrusion width = 0.40mm
; first layer extrusion width = 0.42mm

M73 P0 R8
M201 X2500 Y2500 Z400 E5000 ; sets maximum accelerations, mm/sec^2
M203 X180 Y180 Z12 E80 ; sets maximum feedrates, mm / sec
M204 P1250 R1250 T2500 ; sets acceleration (P, T) and retract acceleration (R), mm/sec^2
M205 X8.00 Y8.00 Z2.00 E10.00 ; sets the jerk limits, mm/sec
M205 S0 T0 ; sets the minimum extruding and travel feed rate, mm/sec
M107
;TYPE:Custom
M862.3 P "MINI" ; printer model check
G90 ; use absolute coordinates
M83 ; extruder relative mode
M104 S170 ; set extruder temp for bed leveling
M140 S60 ; set bed temp
M109 R170 ; wait for bed leveling temp
M190 S60 ; wait for bed temp
M204 T1250 ; set travel acceleration
G28 ; home all without mesh bed level
G29 ; mesh bed leveling 
M204 T2500 ; restore travel acceleration
M104 S215 ; set extruder temp
G92 E0
G1 Y-2 X179 F2400
G1 Z3 F720
M109 S215 ; wait for extruder temp

; intro line
G1 X170 F1000
G1 Z0.2 F720
G1 X110 E8 F900
M73 P1 R8
G1 X40 E10 F700
G92 E0

M221 S95 ; set flow
G21 ; set units to millimeters
G90 ; use absolute coordinates
M83 ; use relative distances for extrusion
M900 K0.2 ; Filament gcode LA 1.5
; ; Filament gcode LA 1.0
M107
;LAYER_CHANGE
;Z:0.2
;HEIGHT:0.2
;BEFORE_LAYER_CHANGE
G92 E0.0
;0.2


G1 E-3.2 F4200
M73 P2 R8
G1 Z.2 F720
;AFTER_LAYER_CHANGE
;0.2
G1 Z.4
G1 X82.759 Y83.639 F9000
G1 Z.2 F720
M73 P3 R8
G1 E3.2 F2400
M204 P800
;TYPE:Skirt/Brim
;WIDTH:0.42
G1 F1200
G1 X83.855 Y82.61 E.04711
G1 X85.114 Y81.786 E.04717
G1 X86.496 Y81.195 E.04712
G1 X87.957 Y80.852 E.04707
G1 X88.912 Y80.768 E.03006
G1 X90.405 Y80.851 E.04689
G1 X91.878 Y81.195 E.0474
G1 X93.627 Y81.989 E.06022
G1 X96.377 Y83.752 E.10242
G1 X97.444 Y84.903 E.04923
G1 X97.818 Y86.388 E.048
G1 X97.818 Y92.388 E.18813
G1 X97.424 Y93.907 E.04923
G1 X96.377 Y95.024 E.048
G1 X93.627 Y96.787 E.10242
G1 X92.39 Y97.394 E.04318
G1 X90.952 Y97.828 E.04712
G1 X89.197 Y98.018 E.05533
G1 X87.957 Y97.923 E.03899
G1 X86.496 Y97.58 E.04707
G1 X85.114 Y96.989 E.04712
G1 X83.855 Y96.165 E.04717
G1 X82.409 Y94.719 E.0641
G1 X81.585 Y93.46 E.04717
G1 X81.185 Y92.601 E.02973
G1 X80.754 Y91.183 E.04645
G1 X80.567 Y89.662 E.04806
G1 X80.651 Y88.158 E.04722
G1 X81.18 Y86.184 E.06409
G1 X81.859 Y84.841 E.04718
G1 X82.723 Y83.687 E.04521
M204 P1000
G1 X83.023 Y83.91 F9000
M204 P800
G1 F1200
G1 X84.071 Y82.919 E.04523
G1 X85.273 Y82.128 E.04511
G1 X86.593 Y81.559 E.04507
G1 X87.99 Y81.228 E.04502
G1 X88.945 Y81.144 E.03006
G1 X90.372 Y81.227 E.04482
G1 X91.78 Y81.559 E.04535
G1 X93.423 Y82.306 E.05658
G1 X96.173 Y84.069 E.10242
G1 X97.154 Y85.165 E.04612
G1 X97.441 Y86.388 E.03938
G1 X97.441 Y92.388 E.18813
G1 X97.048 Y93.805 E.04612
G1 X96.173 Y94.706 E.03938
G1 X93.1 Y96.647 E.11396
G1 X91.78 Y97.216 E.04507
G1 X90.383 Y97.547 E.04502
G1 X89.197 Y97.641 E.03729
G1 X87.99 Y97.547 E.03796
G1 X86.593 Y97.216 E.04502
G1 X85.273 Y96.647 E.04507
G1 X84.071 Y95.856 E.04511
G1 X82.718 Y94.503 E.06001
G1 X81.927 Y93.301 E.04511
G1 X81.527 Y92.442 E.02973
G1 X81.118 Y91.086 E.04439
G1 X80.943 Y89.629 E.04601
M73 P4 R8
G1 X81.027 Y88.191 E.04515
G1 X81.522 Y86.343 E.05999
G1 X82.168 Y85.057 E.04512
G1 X82.987 Y83.958 E.04299
M204 P1000
G1 X83.272 Y84.243 F9000
M204 P800
G1 F1200
G1 X84.288 Y83.228 E.04502
G1 X85.432 Y82.47 E.04305
G1 X86.691 Y81.923 E.04301
G1 X87.617 Y81.675 E.03006
G1 X88.978 Y81.52 E.04297
G1 X90.339 Y81.603 E.04275
G1 X91.683 Y81.923 E.0433
G1 X93.22 Y82.623 E.05295
G1 X95.97 Y84.386 E.10242
G1 X96.858 Y85.422 E.04278
G1 X97.064 Y86.388 E.03097
G1 X97.064 Y92.388 E.18813
G1 X96.672 Y93.695 E.04278
G1 X95.97 Y94.389 E.03097
G1 X92.941 Y96.305 E.11238
G1 X91.683 Y96.852 E.04301
G1 X90.35 Y97.172 E.04297
G1 X89.197 Y97.264 E.03626
G1 X88.023 Y97.172 E.03692
G1 X86.691 Y96.852 E.04297
G1 X85.432 Y96.305 E.04301
G1 X84.288 Y95.547 E.04305
G1 X83.027 Y94.287 E.05591
G1 X82.269 Y93.142 E.04305
G1 X81.868 Y92.282 E.02973
G1 X81.483 Y90.988 E.04234
G1 X81.319 Y89.596 E.04396
G1 X81.403 Y88.224 E.04308
G1 X81.722 Y86.892 E.04297
G1 X82.269 Y85.633 E.04301
G1 X83.027 Y84.489 E.04305
G1 X83.23 Y84.286 E.00901
M204 P1000
; printing object FlightDash Knob Throttle.stl id:0 copy 0
G1 E-2.24 F4200
;WIPE_START
G1 F7200
G1 X84.288 Y83.228 E-.82893
G1 X84.413 Y83.145 E-.08307
;WIPE_END
G1 E-.048 F4200
G1 Z.4 F720
G1 X93.555 Y87.138 F9000
G1 Z.2 F720
G1 E3.2 F2400
M204 P800
;TYPE:Perimeter
;WIDTH:0.419999
G1 F1200
G1 X93.659 Y87.175 E.00347
G1 X93.9 Y87.175 E.00754
G1 X93.9 Y91.601 E.13877
G1 X93.659 Y91.601 E.00754
G1 X93.305 Y91.725 E.01177
G1 X93.196 Y91.842 E.00501
G1 X92.794 Y92.415 E.02194
G1 X92.214 Y92.995 E.02575
G1 X91.542 Y93.466 E.02573
G1 X90.797 Y93.813 E.02574
G1 X90.004 Y94.026 E.02575
G1 X89.187 Y94.097 E.02574
G1 X88.369 Y94.026 E.02574
G1 X87.576 Y93.813 E.02575
G1 X86.832 Y93.466 E.02574
G1 X86.16 Y92.995 E.02573
G1 X85.579 Y92.415 E.02575
G1 X85.108 Y91.743 E.02573
G1 X84.761 Y90.998 E.02574
G1 X84.549 Y90.205 E.02575
G1 X84.477 Y89.388 E.02574
G1 X84.549 Y88.57 E.02574
G1 X84.761 Y87.777 E.02575
G1 X85.108 Y87.033 E.02574
G1 X85.579 Y86.361 E.02573
G1 X86.16 Y85.78 E.02575
G1 X86.832 Y85.309 E.02573
G1 X87.576 Y84.962 E.02574
G1 X88.369 Y84.75 E.02575
G1 X89.187 Y84.678 E.02574
G1 X90.004 Y84.75 E.02574
G1 X90.797 Y84.962 E.02575
G1 X91.542 Y85.309 E.02574
G1 X92.214 Y85.78 E.02573
G1 X92.794 Y86.361 E.02575
G1 X93.305 Y87.05 E.02691
G1 X93.498 Y87.118 E.00642
M204 P1000
G1 X93.681 Y86.798 F9000
M204 P800
;TYPE:External perimeter
G1 F1200
G1 X94.277 Y86.798 E.01867
G1 X94.277 Y91.978 E.16242
G1 X93.659 Y91.978 E.01936
G1 X93.505 Y92.058 E.00546
G1 X93.084 Y92.658 E.02297
G1 X92.457 Y93.285 E.02782
G1 X91.731 Y93.794 E.0278
M73 P5 R8
G1 X90.927 Y94.169 E.02781
G1 X90.07 Y94.398 E.02781
G1 X89.187 Y94.476 E.02781
G1 X88.303 Y94.398 E.02781
G1 X87.446 Y94.169 E.02781
G1 X86.642 Y93.794 E.02781
G1 X85.916 Y93.285 E.0278
G1 X85.289 Y92.658 E.02782
G1 X84.78 Y91.932 E.0278
G1 X84.405 Y91.128 E.02781
G1 X84.176 Y90.271 E.02781
G1 X84.098 Y89.388 E.02781
G1 X84.176 Y88.504 E.02781
G1 X84.405 Y87.647 E.02781
G1 X84.78 Y86.843 E.02781
G1 X85.289 Y86.117 E.0278
G1 X85.916 Y85.49 E.02782
G1 X86.642 Y84.981 E.0278
G1 X87.446 Y84.606 E.02781
G1 X88.303 Y84.377 E.02781
G1 X89.187 Y84.299 E.02781
G1 X90.07 Y84.377 E.02781
G1 X90.927 Y84.606 E.02781
G1 X91.731 Y84.981 E.02781
G1 X92.457 Y85.49 E.0278
G1 X93.084 Y86.117 E.02782
G1 X93.505 Y86.717 E.02297
G1 X93.625 Y86.78 E.00426
M204 P1000
G1 X93.776 Y87.186 F9000
G1 E-2.24 F4200
;WIPE_START
G1 F7200
G1 X94.277 Y86.798 E-.36105
G1 X94.277 Y87.792 E-.55095
;WIPE_END
G1 E-.048 F4200
G1 Z.4 F720
G1 X90.726 Y85.06 F9000
G1 Z.2 F720
G1 E3.2 F2400
M204 P800
;TYPE:Solid infill
;WIDTH:0.431628
G1 F1200
G1 X93.617 Y87.951 E.13213
G1 X93.617 Y88.5 E.01777
G1 X90.215 Y85.099 E.15548
G1 X89.955 Y85.029 E.00871
G1 X89.561 Y84.995 E.01278
G1 X93.617 Y89.05 E.18538
G1 X93.617 Y89.6 E.01777
G1 X88.995 Y84.978 E.21124
G1 X88.49 Y85.023 E.01639
G1 X93.617 Y90.15 E.23434
G1 X93.617 Y90.699 E.01777
G1 X88.046 Y85.129 E.25462
G1 X87.621 Y85.253 E.01433
G1 X93.617 Y91.249 E.27407
G1 X93.617 Y91.327 E.00252
G1 X93.268 Y91.45 E.01196
G1 X87.246 Y85.428 E.27526
G1 X86.974 Y85.555 E.00971
G1 X86.885 Y85.617 E.0035
G1 X92.957 Y91.689 E.27756
G1 X92.731 Y92.012 E.01276
G1 X86.562 Y85.843 E.28199
G1 X86.342 Y85.997 E.00867
M73 P6 R8
G1 X86.254 Y86.085 E.00402
G1 X92.489 Y92.32 E.28499
G1 X92.214 Y92.595 E.01256
G1 X85.979 Y86.36 E.28499
G1 X85.796 Y86.543 E.00836
G1 X85.72 Y86.651 E.00427
G1 X91.923 Y92.854 E.28352
G1 X91.6 Y93.08 E.01276
G1 X85.494 Y86.974 E.27909
G1 X85.354 Y87.175 E.0079
G1 X85.287 Y87.317 E.00509
G1 X91.257 Y93.287 E.27287
G1 X90.882 Y93.462 E.01337
G1 X85.112 Y87.692 E.26372
G1 X85.028 Y87.874 E.00647
G1 X84.968 Y88.097 E.00748
G1 X90.477 Y93.606 E.2518
G1 X90.043 Y93.722 E.01451
G1 X84.852 Y88.531 E.23729
G1 X84.828 Y88.619 E.00295
G1 X84.793 Y89.022 E.01306
G1 X89.552 Y93.781 E.21756
G1 X89.187 Y93.814 E.01187
G1 X89.02 Y93.799 E.00539
G1 X84.775 Y89.554 E.19404
G1 X84.828 Y90.157 E.01956
G1 X88.417 Y93.746 E.16405
G1 X87.664 Y93.542 E.02521
G1 X85.032 Y90.91 E.12033
G1 X85.354 Y91.601 E.02463
G1 X85.777 Y92.205 E.02385
G1 X86.985 Y93.413 E.05523
M204 P1000
; stop printing object FlightDash Knob Throttle.stl id:0 copy 0
M106 S84.15
;LAYER_CHANGE
;Z:0.4
;HEIGHT:0.2
;BEFORE_LAYER_CHANGE
G92 E0.0
;0.4


G1 E-2.24 F4200
;WIPE_START
G1 F7200
G1 X85.822 Y92.25 E-.912
;WIPE_END
G1 E-.048 F4200
G1 Z.4 F720
;AFTER_LAYER_CHANGE
;0.4
M104 S210 ; set temperature
G1 Z.6
M73 P7 R8
G1 X82.881 Y95.191 F9000
G1 Z.4 F720
G1 E3.2 F2400
;TYPE:Skirt/Brim
;WIDTH:0.42
G1 F1741
G1 X82.409 Y94.719 E.0209
G1 X81.585 Y93.46 E.04717
G1 X81.185 Y92.601 E.02973
G1 X80.754 Y91.183 E.04645
G1 X80.567 Y89.662 E.04806
G1 X80.651 Y88.158 E.04722
G1 X81.18 Y86.184 E.06409
G1 X81.859 Y84.841 E.04718
G1 X82.759 Y83.639 E.04709
G1 X83.855 Y82.61 E.04711
G1 X85.114 Y81.786 E.04717
G1 X86.496 Y81.195 E.04712
G1 X87.957 Y80.852 E.04707
G1 X88.912 Y80.768 E.03006
G1 X90.405 Y80.851 E.04689
G1 X91.878 Y81.195 E.0474
G1 X93.627 Y81.989 E.06022
G1 X96.377 Y83.752 E.10242
G1 X97.444 Y84.903 E.04923
G1 X97.818 Y86.388 E.048
G1 X97.818 Y92.388 E.18813
G1 X97.424 Y93.907 E.04923
G1 X96.377 Y95.024 E.048
G1 X93.627 Y96.787 E.10242
G1 X92.39 Y97.394 E.04318
G1 X90.952 Y97.828 E.04712
G1 X89.197 Y98.018 E.05533
G1 X87.957 Y97.923 E.03899
G1 X86.496 Y97.58 E.04707
G1 X85.114 Y96.989 E.04712
G1 X83.855 Y96.165 E.04717
G1 X82.923 Y95.233 E.04132
G1 X83.186 Y94.971 F9000
G1 F1741
G1 X82.718 Y94.503 E.02073
G1 X81.927 Y93.301 E.04511
G1 X81.527 Y92.442 E.02973
G1 X81.118 Y91.086 E.04439
G1 X80.943 Y89.629 E.04601
G1 X81.027 Y88.191 E.04515
G1 X81.522 Y86.343 E.05999
G1 X82.168 Y85.057 E.04512
G1 X83.026 Y83.905 E.04504
G1 X84.071 Y82.919 E.04506
G1 X85.273 Y82.128 E.04511
G1 X86.593 Y81.559 E.04507
G1 X87.99 Y81.228 E.04502
G1 X88.945 Y81.144 E.03006
G1 X90.372 Y81.227 E.04482
G1 X91.78 Y81.559 E.04535
G1 X93.423 Y82.306 E.05658
G1 X96.173 Y84.069 E.10242
G1 X97.154 Y85.165 E.04612
G1 X97.441 Y86.388 E.03938
G1 X97.441 Y92.388 E.18813
G1 X97.048 Y93.805 E.04612
G1 X96.173 Y94.706 E.03938
G1 X93.1 Y96.647 E.11396
G1 X91.78 Y97.216 E.04507
G1 X90.383 Y97.547 E.04502
G1 X89.197 Y97.641 E.03729
G1 X87.99 Y97.547 E.03796
G1 X86.593 Y97.216 E.04502
G1 X85.273 Y96.647 E.04507
G1 X84.071 Y95.856 E.04511
G1 X83.228 Y95.013 E.03739
G1 X83.491 Y94.75 F9000
G1 F1741
G1 X83.027 Y94.287 E.02057
G1 X82.269 Y93.142 E.04305
G1 X81.868 Y92.282 E.02973
G1 X81.483 Y90.988 E.04234
G1 X81.319 Y89.596 E.04396
G1 X81.403 Y88.224 E.04308
G1 X81.722 Y86.892 E.04297
G1 X82.269 Y85.633 E.04301
G1 X83.027 Y84.489 E.04305
G1 X84.288 Y83.228 E.05591
G1 X85.432 Y82.47 E.04305
G1 X86.691 Y81.923 E.04301
G1 X87.617 Y81.675 E.03006
G1 X88.978 Y81.52 E.04297
G1 X90.339 Y81.603 E.04275
G1 X91.683 Y81.923 E.0433
G1 X93.22 Y82.623 E.05295
G1 X95.97 Y84.386 E.10242
G1 X96.858 Y85.422 E.04278
G1 X97.064 Y86.388 E.03097
G1 X97.064 Y92.388 E.18813
G1 X96.672 Y93.695 E.04278
G1 X95.97 Y94.389 E.03097
G1 X92.941 Y96.305 E.11238
G1 X91.683 Y96.852 E.04301
M73 P8 R8
G1 X90.35 Y97.172 E.04297
G1 X89.197 Y97.264 E.03626
G1 X88.023 Y97.172 E.03692
G1 X86.691 Y96.852 E.04297
G1 X85.432 Y96.305 E.04301
G1 X84.288 Y95.547 E.04305
G1 X83.533 Y94.793 E.03346
; printing object FlightDash Knob Throttle.stl id:0 copy 0
G1 E-2.24 F4200
;WIPE_START
G1 F7200
G1 X83.027 Y94.287 E-.39674
G1 X82.514 Y93.511 E-.51526
;WIPE_END
G1 E-.048 F4200
G1 Z.6 F720
G1 X93.649 Y86.979 F9000
G1 Z.4 F720
G1 E3.2 F2400
M204 P800
;TYPE:Perimeter
;WIDTH:0.449999
G1 F1500
G1 X93.763 Y87.02 E.00411
G1 X94.055 Y87.02 E.00986
G1 X94.055 Y91.756 E.1603
G1 X93.763 Y91.756 E.00986
G1 X93.381 Y91.89 E.01371
G1 X93.263 Y92.016 E.00584
G1 X92.914 Y92.515 E.02062
G1 X92.314 Y93.115 E.02872
G1 X91.619 Y93.601 E.0287
G1 X90.851 Y93.959 E.0287
G1 X90.031 Y94.179 E.02871
G1 X89.187 Y94.253 E.0287
G1 X88.342 Y94.179 E.0287
G1 X87.523 Y93.959 E.02871
G1 X86.754 Y93.601 E.0287
G1 X86.06 Y93.115 E.0287
G1 X85.46 Y92.515 E.02872
G1 X84.973 Y91.82 E.0287
G1 X84.615 Y91.052 E.0287
G1 X84.395 Y90.232 E.02871
G1 X84.321 Y89.388 E.0287
G1 X84.395 Y88.543 E.0287
G1 X84.615 Y87.724 E.02871
G1 X84.973 Y86.955 E.0287
G1 X85.46 Y86.261 E.0287
G1 X86.06 Y85.661 E.02872
G1 X86.754 Y85.174 E.0287
G1 X87.523 Y84.816 E.0287
G1 X88.342 Y84.596 E.02871
G1 X89.187 Y84.522 E.0287
G1 X90.001 Y84.594 E.02768
G1 X90.852 Y84.817 E.02978
G1 X91.619 Y85.174 E.02864
G1 X92.314 Y85.661 E.0287
G1 X92.914 Y86.26 E.02872
G1 X93.381 Y86.885 E.02641
G1 X93.592 Y86.959 E.00757
M204 P1000
G1 X93.763 Y86.612 F9000
M204 P800
;TYPE:External perimeter
G1 F1500
G1 X94.462 Y86.613 E.02365
G1 X94.462 Y92.163 E.18786
G1 X93.763 Y92.163 E.02364
G1 X93.597 Y92.249 E.00636
G1 X93.227 Y92.777 E.02182
G1 X92.576 Y93.428 E.03112
G1 X91.824 Y93.955 E.03111
G1 X90.99 Y94.343 E.03112
G1 X90.102 Y94.581 E.03112
G1 X89.187 Y94.662 E.03112
G1 X88.271 Y94.581 E.03112
G1 X87.383 Y94.343 E.03112
G1 X86.55 Y93.955 E.03112
G1 X85.797 Y93.428 E.03111
G1 X85.147 Y92.777 E.03112
G1 X84.619 Y92.025 E.03111
G1 X84.231 Y91.191 E.03112
G1 X83.993 Y90.303 E.03112
G1 X83.912 Y89.388 E.03112
G1 X83.993 Y88.472 E.03112
G1 X84.231 Y87.584 E.03112
G1 X84.619 Y86.751 E.03112
G1 X85.147 Y85.998 E.03111
G1 X85.797 Y85.348 E.03112
G1 X86.55 Y84.82 E.03111
G1 X87.383 Y84.432 E.03112
G1 X88.271 Y84.194 E.03112
G1 X89.187 Y84.113 E.03112
G1 X90.071 Y84.191 E.03006
G1 X90.991 Y84.432 E.03218
G1 X91.824 Y84.82 E.0311
G1 X92.576 Y85.348 E.03111
G1 X93.227 Y85.998 E.03112
G1 X93.597 Y86.526 E.02182
G1 X93.71 Y86.585 E.00432
M204 P1000
G1 X93.858 Y87.001 F9000
G1 E-2.24 F4200
;WIPE_START
G1 F7200
G1 X94.462 Y86.613 E-.41695
G1 X94.462 Y87.506 E-.49505
;WIPE_END
G1 E-.048 F4200
G1 Z.6 F720
G1 X90.81 Y93.844 F9000
G1 Z.4 F720
G1 E3.2 F2400
;TYPE:Solid infill
;WIDTH:0.463554
G1 F1741
G1 X93.749 Y90.904 E.14538
G1 X93.749 Y90.31 E.02081
G1 X90.256 Y93.802 E.17277
G1 X89.978 Y93.877 E.01007
G1 X89.549 Y93.915 E.01506
G1 X93.749 Y89.715 E.20775
G1 X93.749 Y89.12 E.02081
G1 X88.944 Y93.925 E.23769
G1 X88.397 Y93.877 E.0192
G1 X93.749 Y88.525 E.26474
G1 X93.749 Y87.93 E.02081
G1 X87.928 Y93.752 E.28796
G1 X87.627 Y93.671 E.01087
M73 P9 R8
G1 X87.481 Y93.603 E.00564
G1 X93.749 Y87.326 E.31026
G1 X93.316 Y87.174 E.01607
G1 X87.075 Y93.414 E.30867
G1 X86.907 Y93.336 E.00649
G1 X86.702 Y93.192 E.00874
G1 X92.991 Y86.903 E.31107
G1 X92.746 Y86.554 E.01494
G1 X86.353 Y92.947 E.31625
G1 X86.257 Y92.88 E.0041
G1 X86.041 Y92.664 E.01067
G1 X92.463 Y86.242 E.31767
G1 X92.166 Y85.944 E.01471
G1 X85.743 Y92.367 E.31767
G1 X85.49 Y92.026 E.01487
G1 X91.825 Y85.691 E.31334
G1 X91.475 Y85.446 E.01494
G1 X85.245 Y91.676 E.30816
G1 X85.054 Y91.271 E.01563
G1 X91.07 Y85.255 E.29759
G1 X90.748 Y85.105 E.01243
G1 X90.651 Y85.08 E.00352
G1 X84.878 Y90.853 E.28557
G1 X84.752 Y90.384 E.01699
G1 X90.18 Y84.956 E.26847
G1 X89.949 Y84.896 E.00835
G1 X89.67 Y84.871 E.0098
G1 X84.67 Y89.871 E.2473
G1 X84.634 Y89.312 E.01959
G1 X89.111 Y84.835 E.22142
G1 X88.458 Y84.893 E.0229
G1 X84.692 Y88.659 E.18632
G1 X84.894 Y87.863 E.02875
G1 X87.662 Y85.095 E.13691
G1 X86.907 Y85.44 E.02901
G1 X86.288 Y85.873 E.02642
G1 X85.022 Y87.14 E.06266
; stop printing object FlightDash Knob Throttle.stl id:0 copy 0
M106 S170.85
;LAYER_CHANGE
;Z:0.6
;HEIGHT:0.2
;BEFORE_LAYER_CHANGE
G92 E0.0
;0.6


G1 E-2.24 F4200
;WIPE_START
G1 F7200
G1 X86.185 Y85.976 E-.912
;WIPE_END
G1 E-.048 F4200
G1 Z.6 F720
;AFTER_LAYER_CHANGE
;0.6
G1 Z.8
G1 X83.414 Y83.024 F9000
G1 Z.6 F720
G1 E3.2 F2400
;TYPE:Skirt/Brim
;WIDTH:0.42
G1 F1735
M73 P10 R8
G1 X83.855 Y82.61 E.01896
G1 X85.114 Y81.786 E.04717
G1 X86.496 Y81.195 E.04712
G1 X87.957 Y80.852 E.04707
G1 X88.912 Y80.768 E.03006
G1 X90.405 Y80.851 E.04689
G1 X91.878 Y81.195 E.0474
G1 X93.627 Y81.989 E.06022
G1 X96.377 Y83.752 E.10242
G1 X97.444 Y84.903 E.04923
