; generated by PrusaSlicer 2.5.0+win64 on 2022-09-25 at 10:32:07 UTC


;
;

;
;
; 

; external perimeters extrusion width = 0.45mm
; perimeters extrusion width = 0.45mm
; infill extrusion width = 0.45mm
; solid infill extrusion width = 0.45mm
; top infill extrusion width = 0.40mm
; first layer extrusion width = 0.42mm

M73 P0 R10
M201 X2500 Y2500 Z400 E5000 ; sets maximum accelerations, mm/sec^2
M203 X180 Y180 Z12 E80 ; sets maximum feedrates, mm / sec
M204 P1250 R1250 T2500 ; sets acceleration (P, T) and retract acceleration (R), mm/sec^2
M205 X8.00 Y8.00 Z2.00 E10.00 ; sets the jerk limits, mm/sec
M205 S0 T0 ; sets the minimum extruding and travel feed rate, mm/sec
M107
;TYPE:Custom
M862.3 P "MINI" ; printer model check
G90 ; use absolute coordinates
M83 ; extruder relative mode
M104 S170 ; set extruder temp for bed leveling
M140 S60 ; set bed temp
M109 R170 ; wait for bed leveling temp
M190 S60 ; wait for bed temp
M204 T1250 ; set travel acceleration
G28 ; home all without mesh bed level
G29 ; mesh bed leveling 
M204 T2500 ; restore travel acceleration
M104 S215 ; set extruder temp
G92 E0
G1 Y-2 X179 F2400
G1 Z3 F720
M109 S215 ; wait for extruder temp

; intro line
G1 X170 F1000
G1 Z0.2 F720
G1 X110 E8 F900
G1 X40 E10 F700
G92 E0

M221 S95 ; set flow
G21 ; set units to millimeters
G90 ; use absolute coordinates
M83 ; use relative distances for extrusion
M900 K0.2 ; Filament gcode LA 1.5
; ; Filament gcode LA 1.0
M107
;LAYER_CHANGE
;Z:0.2
;HEIGHT:0.2
;BEFORE_LAYER_CHANGE
G92 E0.0
;0.2


M73 P1 R10
G1 E-3.2 F4200
M73 P2 R10
G1 Z.2 F720
;AFTER_LAYER_CHANGE
;0.2
G1 Z.4
G1 X82.56 Y81.793 F9000
G1 Z.2 F720
G1 E3.2 F2400
M204 P800
;TYPE:Skirt/Brim
;WIDTH:0.42
G1 F1200
G1 X83.283 Y81.228 E.02879
G1 X84.105 Y80.792 E.02916
G1 X84.976 Y80.509 E.0287
G1 X86.441 Y80.381 E.0461
G1 X87.333 Y80.503 E.02825
G1 X96.79 Y82.97 E.30644
G1 X98.162 Y83.735 E.04923
G1 X98.99 Y85.069 E.04923
G1 X99.131 Y86 E.02954
G1 X99.131 Y94 E.25083
G1 X98.738 Y95.52 E.04923
G1 X97.656 Y96.658 E.04923
G1 X96.79 Y97.03 E.02954
G1 X87.333 Y99.497 E.30644
G1 X86.441 Y99.619 E.02825
G1 X85.069 Y99.513 E.04314
G1 X83.766 Y99.051 E.04335
G1 X82.56 Y98.207 E.04615
G1 X81.73 Y97.22 E.04044
G1 X81.107 Y95.888 E.0461
G1 X80.881 Y94.606 E.04082
G1 X80.869 Y85.667 E.28028
G1 X80.914 Y85.017 E.02043
M73 P3 R10
G1 X81.107 Y84.112 E.02902
G1 X81.449 Y83.266 E.0286
G1 X81.945 Y82.474 E.02929
G1 X82.52 Y81.837 E.0269
M204 P1000
G1 X82.781 Y82.125 F9000
M204 P800
G1 F1200
G1 X83.191 Y81.753 E.01736
G1 X83.925 Y81.291 E.02718
G1 X84.631 Y80.995 E.02401
G1 X85.55 Y80.789 E.02953
G1 X86.408 Y80.756 E.02692
G1 X87.238 Y80.868 E.02627
G1 X96.695 Y83.335 E.30644
G1 X97.968 Y84.073 E.04612
G1 X98.754 Y86 E.06526
G1 X98.754 Y94 E.25083
G1 X98.361 Y95.417 E.04612
G1 X96.695 Y96.665 E.06526
G1 X87.238 Y99.132 E.30644
G1 X86.408 Y99.244 E.02627
G1 X85.156 Y99.147 E.03935
G1 X83.925 Y98.709 E.04099
G1 X82.827 Y97.94 E.04202
G1 X82.039 Y97.003 E.03839
G1 X81.472 Y95.79 E.04199
G1 X81.256 Y94.573 E.03875
G1 X81.246 Y85.667 E.27925
G1 X81.374 Y84.574 E.0345
G1 X81.632 Y83.768 E.02655
G1 X82.036 Y83 E.02719
G1 X82.56 Y82.327 E.02675
G1 X82.737 Y82.166 E.0075
M204 P1000
G1 X82.99 Y82.443 F9000
M204 P800
G1 F1200
G1 X83.408 Y82.062 E.01774
G1 X84.083 Y81.633 E.02508
G1 X84.739 Y81.356 E.02232
G1 X85.583 Y81.165 E.02713
G1 X86.375 Y81.132 E.02486
G1 X87.143 Y81.233 E.02429
G1 X96.6 Y83.7 E.30644
G1 X97.766 Y84.409 E.04278
G1 X98.377 Y86 E.05345
G1 X98.377 Y94 E.25083
G1 X97.985 Y95.307 E.04278
G1 X96.6 Y96.3 E.05345
G1 X86.751 Y98.835 E.31888
G1 X85.587 Y98.835 E.03649
G1 X84.426 Y98.526 E.03767
G1 X83.408 Y97.938 E.03686
G1 X82.562 Y97.092 E.03752
G1 X82.138 Y96.424 E.0248
G1 X81.836 Y95.692 E.02484
G1 X81.632 Y94.54 E.03667
G1 X81.623 Y85.667 E.27822
G1 X81.738 Y84.672 E.0314
M73 P4 R10
G1 X81.974 Y83.926 E.02453
G1 X82.345 Y83.217 E.02509
G1 X82.826 Y82.593 E.02471
G1 X82.946 Y82.484 E.00509
M204 P1000
; printing object FlightDash Knob Prop.stl id:0 copy 0
G1 E-2.24 F4200
;WIPE_START
G1 F7200
G1 X83.408 Y82.062 E-.34673
G1 X84.083 Y81.633 E-.4432
G1 X84.286 Y81.548 E-.12207
;WIPE_END
G1 E-.048 F4200
G1 Z.4 F720
G1 X86.483 Y92.629 F9000
G1 Z.2 F720
G1 E3.2 F2400
M204 P800
;TYPE:Perimeter
;WIDTH:0.419999
G1 F1200
G1 X86.517 Y92.59 E.00162
G1 X86.56 Y92.376 E.00685
G1 X86.546 Y91.832 E.01704
G1 X86.475 Y91.661 E.0058
G1 X86.287 Y91.476 E.00828
G1 X85.697 Y91.294 E.01937
G1 X85.282 Y91.055 E.01502
G1 X84.975 Y90.688 E.01498
G1 X84.811 Y90.239 E.01501
G1 X84.811 Y89.762 E.01496
G1 X84.975 Y89.312 E.01501
G1 X85.282 Y88.945 E.01498
G1 X85.697 Y88.706 E.01502
G1 X86.287 Y88.524 E.01937
G1 X86.44 Y88.389 E.00639
G1 X86.546 Y88.168 E.0077
G1 X86.56 Y87.624 E.01704
G1 X86.517 Y87.41 E.00685
G1 X86.287 Y87.141 E.0111
G1 X85.479 Y86.859 E.02684
G1 X85.112 Y86.551 E.01502
G1 X84.873 Y86.138 E.01494
G1 X84.79 Y85.667 E.015
G1 X84.873 Y85.196 E.015
G1 X85.112 Y84.782 E.01497
G1 X85.478 Y84.475 E.01499
G1 X85.928 Y84.311 E.01501
G1 X86.406 Y84.311 E.01498
G1 X86.855 Y84.474 E.01499
G1 X87.255 Y84.809 E.01636
G1 X87.476 Y84.912 E.00764
G1 X95.213 Y86.631 E.2485
G1 X95.213 Y93.369 E.21124
G1 X87.36 Y95.127 E.25231
G1 X87.051 Y95.388 E.0127
G1 X86.638 Y95.627 E.01494
G1 X86.167 Y95.71 E.015
G1 X85.696 Y95.627 E.015
G1 X85.282 Y95.388 E.01497
G1 X84.975 Y95.022 E.01499
G1 X84.811 Y94.572 E.01501
G1 X84.811 Y94.095 E.01498
G1 X84.974 Y93.645 E.01499
G1 X85.282 Y93.279 E.01501
G1 X85.696 Y93.04 E.01498
G1 X86.287 Y92.859 E.01938
G1 X86.444 Y92.675 E.0076
M204 P1000
G1 X86.168 Y92.447 F9000
M204 P800
;TYPE:External perimeter
G1 F1200
G1 X86.178 Y91.917 E.0166
G1 X86.092 Y91.798 E.0046
G1 X85.567 Y91.649 E.01711
G1 X85.164 Y91.433 E.01434
G1 X84.822 Y91.128 E.01435
G1 X84.582 Y90.738 E.01437
G1 X84.438 Y90.304 E.01433
G1 X84.425 Y89.848 E.01433
G1 X84.518 Y89.4 E.01435
G1 X84.735 Y88.997 E.01434
G1 X85.038 Y88.655 E.01433
G1 X85.429 Y88.415 E.01439
G1 X86.044 Y88.222 E.02019
G1 X86.162 Y88.126 E.00478
G1 X86.183 Y87.625 E.01574
G1 X86.115 Y87.48 E.00501
G1 X85.289 Y87.187 E.02748
G1 X84.932 Y86.904 E.01429
G1 X84.646 Y86.544 E.01439
G1 X84.479 Y86.122 E.01425
G1 X84.412 Y85.667 E.01441
G1 X84.478 Y85.213 E.01437
G1 X84.647 Y84.789 E.01433
G1 X84.928 Y84.432 E.01425
G1 X85.289 Y84.147 E.01442
G1 X85.711 Y83.979 E.01425
G1 X86.167 Y83.912 E.01445
G1 X86.619 Y83.978 E.01432
G1 X87.044 Y84.146 E.01434
G1 X87.558 Y84.544 E.02037
G1 X95.59 Y86.329 E.25799
G1 X95.59 Y93.671 E.23021
G1 X87.558 Y95.456 E.25799
G1 X87.294 Y95.678 E.0108
G1 X86.904 Y95.919 E.01437
G1 X86.471 Y96.062 E.01429
G1 X86.015 Y96.075 E.01432
G1 X85.567 Y95.982 E.01435
G1 X85.162 Y95.764 E.01441
G1 X84.822 Y95.461 E.01428
G1 X84.581 Y95.071 E.01438
G1 X84.438 Y94.638 E.01429
G1 X84.425 Y94.181 E.01435
G1 X84.518 Y93.733 E.01435
G1 X84.735 Y93.329 E.01436
G1 X85.039 Y92.989 E.0143
G1 X85.428 Y92.749 E.01434
G1 X86.043 Y92.557 E.02019
G1 X86.123 Y92.486 E.00337
M204 P1000
G1 X86.566 Y92.4 F9000
G1 E-2.24 F4200
;WIPE_START
G1 F7200
G1 X86.178 Y91.917 E-.3167
G1 X86.092 Y91.798 E-.08135
G1 X85.567 Y91.649 E-.30247
G1 X85.231 Y91.468 E-.21148
;WIPE_END
G1 E-.048 F4200
G1 Z.4 F720
G1 X95.1 Y87.499 F9000
G1 Z.2 F720
G1 E3.2 F2400
M204 P800
;TYPE:Solid infill
;WIDTH:0.425262
G1 F1200
G1 X94.324 Y86.724 E.03488
G1 X93.629 Y86.569 E.02264
G1 X94.93 Y87.87 E.0585
G1 X94.93 Y88.411 E.01719
G1 X92.934 Y86.415 E.08976
G1 X92.238 Y86.26 E.02264
G1 X94.93 Y88.952 E.12102
G1 X94.93 Y89.492 E.01719
G1 X91.543 Y86.106 E.15227
G1 X90.848 Y85.951 E.02264
M73 P5 R10
G1 X94.93 Y90.033 E.18353
G1 X94.93 Y90.574 E.01719
G1 X90.153 Y85.797 E.21479
G1 X89.458 Y85.642 E.02264
G1 X94.93 Y91.115 E.24604
G1 X94.93 Y91.655 E.01719
G1 X88.762 Y85.488 E.2773
G1 X88.067 Y85.333 E.02264
G1 X94.93 Y92.196 E.30856
G1 X94.93 Y92.737 E.01719
G1 X87.362 Y85.168 E.34029
G1 X87.158 Y85.087 E.00697
G1 X86.87 Y84.831 E.01224
G1 X86.713 Y84.72 E.00612
G1 X86.544 Y84.641 E.00594
G1 X86.236 Y84.584 E.00994
G1 X94.819 Y93.166 E.38589
G1 X94.377 Y93.265 E.01441
G1 X85.765 Y84.653 E.38719
G1 X85.62 Y84.72 E.00509
M73 P5 R9
G1 X85.465 Y84.829 E.00601
G1 X85.433 Y84.861 E.00145
G1 X93.934 Y93.363 E.38224
G1 X93.492 Y93.461 E.01441
G1 X85.198 Y85.168 E.37289
G1 X85.14 Y85.293 E.00438
G1 X85.091 Y85.477 E.00607
G1 X85.081 Y85.591 E.00363
G1 X93.05 Y93.56 E.35829
G1 X92.607 Y93.658 E.01441
G1 X86.843 Y87.894 E.25917
G1 X86.822 Y88.232 E.01078
M73 P6 R9
G1 X86.773 Y88.365 E.00449
G1 X92.165 Y93.756 E.24241
G1 X91.722 Y93.855 E.01441
G1 X86.541 Y88.673 E.23296
G1 X86.436 Y88.766 E.00446
G1 X86.193 Y88.866 E.00835
G1 X91.28 Y93.953 E.22873
G1 X90.838 Y94.051 E.01441
G1 X85.77 Y88.984 E.22783
G1 X85.62 Y89.054 E.00528
G1 X85.436 Y89.191 E.00727
G1 X90.395 Y94.15 E.22295
G1 X89.953 Y94.248 E.01441
G1 X85.201 Y89.496 E.21365
G1 X85.14 Y89.626 E.00456
G1 X85.081 Y89.917 E.00944
G1 X89.51 Y94.346 E.19913
G1 X89.068 Y94.444 E.01441
G1 X86.843 Y92.219 E.10005
G1 X86.842 Y92.385 E.00527
G1 X86.78 Y92.698 E.01013
G1 X88.626 Y94.543 E.08295
G1 X88.183 Y94.641 E.01441
G1 X86.552 Y93.01 E.07331
G1 X86.303 Y93.166 E.00933
G1 X86.196 Y93.195 E.00353
G1 X87.741 Y94.739 E.06943
G1 X87.407 Y94.814 E.01086
G1 X87.312 Y94.852 E.00325
G1 X85.775 Y93.315 E.0691
G1 X85.621 Y93.387 E.00542
G1 X85.44 Y93.521 E.00714
G1 X86.986 Y95.066 E.0695
G1 X86.87 Y95.169 E.00492
G1 X86.676 Y95.297 E.00739
G1 X85.203 Y93.824 E.06623
G1 X85.14 Y93.959 E.00474
G1 X85.082 Y94.243 E.00923
G1 X86.257 Y95.418 E.05282
G1 X85.977 Y95.409 E.00889
G1 X85.793 Y95.36 E.00607
G1 X85.62 Y95.28 E.00606
G1 X85.477 Y95.179 E.00553
G1 X84.95 Y94.652 E.02372
M204 P1000
; stop printing object FlightDash Knob Prop.stl id:0 copy 0
M106 S84.15
;LAYER_CHANGE
;Z:0.4
;HEIGHT:0.2
;BEFORE_LAYER_CHANGE
G92 E0.0
;0.4


G1 E-2.24 F4200
;WIPE_START
G1 F7200
G1 X85.477 Y95.179 E-.41348
G1 X85.62 Y95.28 E-.09648
G1 X85.793 Y95.36 E-.10571
G1 X85.977 Y95.409 E-.10584
G1 X86.257 Y95.418 E-.15492
G1 X86.211 Y95.373 E-.03557
;WIPE_END
G1 E-.048 F4200
G1 Z.4 F720
;AFTER_LAYER_CHANGE
;0.4
M104 S210 ; set temperature
G1 Z.6
G1 X85.887 Y99.577 F9000
G1 Z.4 F720
G1 E3.2 F2400
;TYPE:Skirt/Brim
;WIDTH:0.42
G1 F2164
G1 X85.069 Y99.513 E.02572
G1 X83.766 Y99.051 E.04335
G1 X82.56 Y98.207 E.04615
G1 X81.73 Y97.22 E.04044
G1 X81.107 Y95.888 E.0461
G1 X80.881 Y94.606 E.04082
G1 X80.869 Y85.667 E.28028
G1 X80.914 Y85.017 E.02043
G1 X81.107 Y84.112 E.02902
G1 X81.449 Y83.266 E.0286
G1 X81.945 Y82.474 E.02929
G1 X82.56 Y81.793 E.02879
G1 X83.283 Y81.228 E.02879
G1 X84.105 Y80.792 E.02916
G1 X84.976 Y80.509 E.0287
G1 X86.441 Y80.381 E.0461
G1 X87.333 Y80.503 E.02825
G1 X96.79 Y82.97 E.30644
G1 X98.162 Y83.735 E.04923
G1 X98.99 Y85.069 E.04923
G1 X99.131 Y86 E.02954
G1 X99.131 Y94 E.25083
G1 X98.738 Y95.52 E.04923
G1 X97.656 Y96.658 E.04923
G1 X96.79 Y97.03 E.02954
G1 X87.333 Y99.497 E.30644
G1 X86.441 Y99.619 E.02825
G1 X85.947 Y99.581 E.01553
G1 X85.976 Y99.21 F9000
G1 F2164
G1 X85.156 Y99.147 E.02576
G1 X83.925 Y98.709 E.04099
M73 P7 R9
G1 X82.827 Y97.94 E.04202
G1 X82.039 Y97.003 E.03839
G1 X81.472 Y95.79 E.04199
G1 X81.256 Y94.573 E.03875
G1 X81.246 Y85.667 E.27925
G1 X81.374 Y84.574 E.0345
G1 X81.632 Y83.768 E.02655
G1 X82.036 Y83 E.02719
G1 X82.56 Y82.327 E.02675
G1 X83.191 Y81.753 E.02675
G1 X83.925 Y81.291 E.02718
G1 X84.631 Y80.995 E.02401
G1 X85.55 Y80.789 E.02953
G1 X86.408 Y80.756 E.02692
G1 X87.238 Y80.868 E.02627
G1 X96.695 Y83.335 E.30644
G1 X97.968 Y84.073 E.04612
G1 X98.754 Y86 E.06526
G1 X98.754 Y94 E.25083
G1 X98.361 Y95.417 E.04612
G1 X96.695 Y96.665 E.06526
G1 X87.238 Y99.132 E.30644
G1 X86.408 Y99.244 E.02627
G1 X86.035 Y99.215 E.01171
G1 X86.035 Y98.835 F9000
G1 F2164
G1 X85.587 Y98.835 E.01406
G1 X84.426 Y98.526 E.03767
G1 X83.408 Y97.938 E.03686
G1 X82.562 Y97.092 E.03752
G1 X82.138 Y96.424 E.0248
G1 X81.836 Y95.692 E.02484
G1 X81.632 Y94.54 E.03667
G1 X81.623 Y85.667 E.27822
G1 X81.738 Y84.672 E.0314
G1 X81.974 Y83.926 E.02453
G1 X82.345 Y83.217 E.02509
G1 X82.826 Y82.593 E.02471
G1 X83.408 Y82.062 E.0247
G1 X84.083 Y81.633 E.02508
G1 X84.739 Y81.356 E.02232
G1 X85.583 Y81.165 E.02713
G1 X86.375 Y81.132 E.02486
G1 X87.143 Y81.233 E.02429
G1 X96.6 Y83.7 E.30644
G1 X97.766 Y84.409 E.04278
G1 X98.377 Y86 E.05345
G1 X98.377 Y94 E.25083
G1 X97.985 Y95.307 E.04278
G1 X96.6 Y96.3 E.05345
G1 X86.751 Y98.835 E.31888
G1 X86.095 Y98.835 E.02055
; printing object FlightDash Knob Prop.stl id:0 copy 0
G1 E-2.24 F4200
;WIPE_START
G1 F7200
G1 X85.587 Y98.835 E-.28173
G1 X84.488 Y98.542 E-.63027
;WIPE_END
G1 E-.048 F4200
G1 Z.6 F720
G1 X86.319 Y92.526 F9000
G1 Z.4 F720
G1 E3.2 F2400
M204 P800
;TYPE:Perimeter
;WIDTH:0.449999
G1 F2164
G1 X86.388 Y92.363 E.006
G1 X86.388 Y91.97 E.0133
G1 X86.308 Y91.782 E.00691
G1 X86.105 Y91.587 E.00953
G1 X85.643 Y91.44 E.01638
G1 X85.182 Y91.174 E.01804
G1 X84.84 Y90.766 E.01801
G1 X84.658 Y90.266 E.01803
G1 X84.658 Y89.734 E.01798
G1 X84.84 Y89.234 E.01803
G1 X85.182 Y88.826 E.01801
G1 X85.523 Y88.616 E.01357
G1 X86.105 Y88.413 E.02085
G1 X86.268 Y88.272 E.00731
G1 X86.388 Y88.03 E.00914
G1 X86.405 Y87.778 E.00855
G1 X86.328 Y87.483 E.01033
G1 X86.126 Y87.266 E.01004
G1 X85.401 Y86.994 E.02621
G1 X84.993 Y86.651 E.01804
G1 X84.727 Y86.191 E.01797
G1 X84.635 Y85.667 E.01802
G1 X84.727 Y85.143 E.01802
G1 X84.993 Y84.682 E.01799
G1 X85.4 Y84.34 E.01801
G1 X85.899 Y84.158 E.01797
G1 X86.433 Y84.158 E.01807
G1 X86.915 Y84.331 E.01735
G1 X87.317 Y84.654 E.01745
G1 X87.566 Y84.773 E.00937
G1 X95.368 Y86.507 E.27051
G1 X95.368 Y93.493 E.23647
G1 X88.24 Y95.077 E.24716
G1 X87.436 Y95.272 E.028
G1 X87.027 Y95.579 E.01732
G1 X86.691 Y95.773 E.01312
G1 X86.167 Y95.866 E.01802
G1 X85.643 Y95.773 E.01802
G1 X85.182 Y95.507 E.01799
G1 X84.84 Y95.1 E.01801
G1 X84.658 Y94.599 E.01803
G1 X84.658 Y94.067 E.01801
G1 X84.84 Y93.567 E.01801
G1 X85.182 Y93.16 E.01802
G1 X85.522 Y92.95 E.01351
G1 X86.102 Y92.749 E.02079
G1 X86.277 Y92.569 E.0085
M204 P1000
G1 X85.972 Y92.32 F9000
M204 P800
;TYPE:External perimeter
G1 F1800
G1 X85.998 Y92.113 E.00705
G1 X85.931 Y91.962 E.00558
G1 X85.503 Y91.824 E.01523
G1 X85.058 Y91.584 E.01712
G1 X84.68 Y91.248 E.01712
G1 X84.414 Y90.816 E.01718
G1 X84.255 Y90.337 E.01707
G1 X84.241 Y89.832 E.01711
G1 X84.343 Y89.336 E.01712
G1 X84.583 Y88.89 E.01714
G1 X84.919 Y88.513 E.0171
G1 X85.351 Y88.247 E.01716
G1 X85.847 Y88.084 E.01769
G1 X85.965 Y87.997 E.00495
G1 X85.998 Y87.779 E.00748
G1 X85.934 Y87.631 E.00546
G1 X85.196 Y87.347 E.02674
G1 X84.798 Y87.032 E.0172
G1 X84.486 Y86.637 E.01704
G1 X84.299 Y86.166 E.01713
G1 X84.226 Y85.667 E.01709
G1 X84.3 Y85.162 E.01727
G1 X84.486 Y84.696 E.01698
G1 X84.802 Y84.297 E.01723
G1 X85.196 Y83.986 E.017
G1 X85.662 Y83.8 E.01699
G1 X86.179 Y83.727 E.01766
G1 X86.656 Y83.796 E.01632
G1 X87.131 Y83.983 E.01728
G1 X87.655 Y84.376 E.02217
G1 X95.775 Y86.18 E.28156
G1 X95.775 Y93.82 E.25857
G1 X87.655 Y95.624 E.28156
G1 X87.282 Y95.896 E.01564
M73 P8 R9
G1 X86.956 Y96.098 E.01296
G1 X86.504 Y96.245 E.01609
G1 X85.995 Y96.259 E.01724
G1 X85.503 Y96.157 E.01699
G1 X85.055 Y95.915 E.01723
G1 X84.68 Y95.581 E.01702
G1 X84.412 Y95.146 E.01727
G1 X84.255 Y94.671 E.01695
G1 X84.241 Y94.164 E.01715
G1 X84.343 Y93.669 E.01711
G1 X84.584 Y93.223 E.01716
G1 X84.919 Y92.847 E.01706
G1 X85.349 Y92.581 E.01712
G1 X85.847 Y92.418 E.01771
G1 X85.925 Y92.357 E.00336
M204 P1000
G1 X86.18 Y92.309 F9000
G1 E-2.24 F4200
;WIPE_START
G1 F7200
G1 X85.998 Y92.113 E-.14088
G1 X85.931 Y91.962 E-.09132
G1 X85.503 Y91.824 E-.24929
G1 X85.058 Y91.584 E-.28036
G1 X84.856 Y91.404 E-.15014
;WIPE_END
G1 E-.048 F4200
G1 Z.6 F720
G1 X95.246 Y92.548 F9000
G1 Z.4 F720
G1 E3.2 F2400
;TYPE:Solid infill
;WIDTH:0.459641
G1 F2164
G1 X94.398 Y93.396 E.04157
G1 X93.64 Y93.564 E.0269
G1 X95.063 Y92.141 E.06972
G1 X95.063 Y91.552 E.02042
G1 X92.882 Y93.733 E.10685
G1 X92.124 Y93.901 E.0269
G1 X95.063 Y90.963 E.14398
G1 X95.063 Y90.373 E.02042
G1 X91.367 Y94.069 E.18111
G1 X90.609 Y94.238 E.0269
G1 X95.063 Y89.784 E.21824
G1 X95.063 Y89.195 E.02042
G1 X89.851 Y94.406 E.25537
G1 X89.094 Y94.575 E.0269
G1 X95.063 Y88.605 E.2925
G1 X95.063 Y88.016 E.02042
G1 X88.336 Y94.743 E.32963
G1 X87.578 Y94.911 E.0269
