; generated by PrusaSlicer 2.5.0+win64 on 2022-09-25 at 10:29:50 UTC


;
;

;
;
; 

; external perimeters extrusion width = 0.45mm
; perimeters extrusion width = 0.45mm
; infill extrusion width = 0.45mm
; solid infill extrusion width = 0.45mm
; top infill extrusion width = 0.40mm
; first layer extrusion width = 0.42mm

M73 P0 R161
M201 X2500 Y2500 Z400 E5000 ; sets maximum accelerations, mm/sec^2
M203 X180 Y180 Z12 E80 ; sets maximum feedrates, mm / sec
M204 P1250 R1250 T2500 ; sets acceleration (P, T) and retract acceleration (R), mm/sec^2
M205 X8.00 Y8.00 Z2.00 E10.00 ; sets the jerk limits, mm/sec
M205 S0 T0 ; sets the minimum extruding and travel feed rate, mm/sec
M107
;TYPE:Custom
M862.3 P "MINI" ; printer model check
G90 ; use absolute coordinates
M83 ; extruder relative mode
M104 S170 ; set extruder temp for bed leveling
M140 S60 ; set bed temp
M109 R170 ; wait for bed leveling temp
M190 S60 ; wait for bed temp
M204 T1250 ; set travel acceleration
G28 ; home all without mesh bed level
G29 ; mesh bed leveling 
M204 T2500 ; restore travel acceleration
M104 S215 ; set extruder temp
G92 E0
G1 Y-2 X179 F2400
G1 Z3 F720
M109 S215 ; wait for extruder temp

; intro line
G1 X170 F1000
G1 Z0.2 F720
G1 X110 E8 F900
G1 X40 E10 F700
G92 E0

M221 S95 ; set flow
G21 ; set units to millimeters
G90 ; use absolute coordinates
M83 ; use relative distances for extrusion
M900 K0.2 ; Filament gcode LA 1.5
; ; Filament gcode LA 1.0
M107
;LAYER_CHANGE
;Z:0.2
;HEIGHT:0.2
;BEFORE_LAYER_CHANGE
G92 E0.0
;0.2


G1 E-3.2 F4200
G1 Z.2 F720
;AFTER_LAYER_CHANGE
;0.2
G1 Z.4
G1 X45.515 Y38.693 F9000
G1 Z.2 F720
G1 E3.2 F2400
M204 P800
;TYPE:Skirt/Brim
;WIDTH:0.42
G1 F1200
G1 X46.56 Y37.817 E.04278
G1 X47.5 Y37.623 E.03008
G1 X132.5 Y37.623 E2.66512
G1 X133.807 Y38.015 E.04278
G1 X134.683 Y39.06 E.04278
G1 X134.877 Y40 E.03008
G1 X134.877 Y140 E3.13543
G1 X134.485 Y141.307 E.04278
G1 X133.44 Y142.183 E.04278
G1 X132.5 Y142.377 E.03008
G1 X47.5 Y142.377 E2.66512
G1 X46.193 Y141.985 E.04278
M73 P0 R160
G1 X45.317 Y140.94 E.04278
G1 X45.123 Y140 E.03008
G1 X45.123 Y40 E3.13543
G1 X45.497 Y38.75 E.0409
M204 P1000
; printing object FlightDash Faceplate Throttle.stl id:0 copy 0
G1 E-2.24 F4200
;WIPE_START
G1 F7200
G1 X46.56 Y37.817 E-.78411
G1 X46.786 Y37.77 E-.12789
;WIPE_END
G1 E-.048 F4200
G1 Z.4 F720
G1 X93.32 Y116.402 F9000
G1 Z.2 F720
G1 E3.2 F2400
M204 P800
;TYPE:Perimeter
;WIDTH:0.419999
G1 F1200
G1 X92.273 Y114.306 E.07345
G1 X92.213 Y114.053 E.00815
G1 X92.213 Y48.946 E2.0414
G1 X92.273 Y48.693 E.00815
G1 X93.32 Y46.597 E.07345
G1 X93.217 Y46.087 E.01634
G1 X93.277 Y45.531 E.01752
G1 X93.505 Y45.022 E.01751
G1 X93.88 Y44.608 E.01751
G1 X94.365 Y44.33 E.01752
G1 X94.869 Y44.222 E.01617
G1 X95.449 Y44.272 E.01824
G1 X95.976 Y44.503 E.01805
G1 X96.39 Y44.878 E.01751
G1 X96.668 Y45.363 E.01752
G1 X96.783 Y45.909 E.0175
G1 X96.723 Y46.465 E.01752
G1 X96.68 Y46.597 E.00437
G1 X97.727 Y48.693 E.07345
G1 X97.787 Y48.946 E.00815
G1 X97.787 Y114.053 E2.0414
G1 X97.727 Y114.308 E.0082
G1 X96.68 Y116.402 E.07339
G1 X96.783 Y116.912 E.01634
G1 X96.727 Y117.44 E.01663
G1 X96.656 Y117.661 E.00729
G1 X96.411 Y118.099 E.01572
G1 X96.041 Y118.457 E.01614
G1 X95.555 Y118.704 E.01709
G1 X94.962 Y118.789 E.01878
G1 X94.466 Y118.71 E.01578
G1 X94.012 Y118.489 E.01583
G1 X93.61 Y118.121 E.01709
G1 X93.332 Y117.636 E.01752
G1 X93.217 Y117.09 E.0175
G1 X93.277 Y116.534 E.01752
G1 X93.302 Y116.459 E.00249
M204 P1000
G1 X93.739 Y116.397 F9000
M204 P800
;TYPE:External perimeter
G1 F1200
G1 X92.61 Y114.138 E.07919
G1 X92.59 Y114.053 E.00272
G1 X92.59 Y48.946 E2.0414
G1 X92.61 Y48.861 E.00272
G1 X93.739 Y46.602 E.07919
G1 X93.65 Y46.406 E.00677
G1 X93.59 Y45.968 E.01385
G1 X93.668 Y45.534 E.01383
G1 X93.876 Y45.145 E.01385
G1 X94.195 Y44.84 E.01383
G1 X94.592 Y44.648 E.01384
G1 X94.982 Y44.593 E.01233
G1 X95.463 Y44.666 E.01527
G1 X95.853 Y44.874 E.01386
G1 X96.158 Y45.193 E.01383
G1 X96.35 Y45.59 E.01384
G1 X96.41 Y46.028 E.01384
G1 X96.332 Y46.462 E.01385
G1 X96.261 Y46.602 E.00493
G1 X97.39 Y48.861 E.07919
G1 X97.41 Y48.946 E.00272
G1 X97.41 Y114.053 E2.0414
G1 X96.261 Y116.397 E.08184
G1 X96.35 Y116.593 E.00677
G1 X96.41 Y117.031 E.01385
G1 X96.319 Y117.49 E.01469
G1 X96.124 Y117.854 E.01296
G1 X95.806 Y118.159 E.01381
G1 X95.407 Y118.353 E.0139
G1 X94.971 Y118.411 E.0138
G1 X94.536 Y118.334 E.01386
G1 X94.098 Y118.076 E.01593
G1 X93.842 Y117.806 E.01167
G1 X93.65 Y117.409 E.01384
G1 X93.59 Y116.971 E.01384
G1 X93.668 Y116.537 E.01385
G1 X93.712 Y116.45 E.00305
M204 P1000
G1 X93.357 Y116.279 F9000
G1 E-2.24 F4200
;WIPE_START
G1 F7200
G1 X93.004 Y114.965 E-.912
;WIPE_END
G1 E-.048 F4200
G1 Z.4 F720
G1 X86.68 Y116.402 F9000
G1 Z.2 F720
G1 E3.2 F2400
M204 P800
;TYPE:Perimeter
G1 F1200
G1 X86.783 Y116.912 E.01634
G1 X86.723 Y117.468 E.01752
G1 X86.495 Y117.977 E.01751
G1 X86.12 Y118.391 E.0175
G1 X85.636 Y118.67 E.0175
G1 X85.087 Y118.784 E.0176
G1 X84.585 Y118.733 E.01581
G1 X84.364 Y118.67 E.00722
G1 X83.915 Y118.423 E.01605
G1 X83.61 Y118.121 E.01348
G1 X83.344 Y117.661 E.01665
G1 X83.273 Y117.44 E.00728
G1 X83.217 Y116.912 E.01664
G1 X83.32 Y116.402 E.01634
G1 X82.273 Y114.306 E.07345
G1 X82.213 Y114.053 E.00815
G1 X82.213 Y48.946 E2.0414
G1 X82.273 Y48.693 E.00815
G1 X83.32 Y46.597 E.07345
G1 X83.217 Y46.087 E.01634
G1 X83.277 Y45.531 E.01752
G1 X83.505 Y45.022 E.01751
G1 X83.881 Y44.607 E.01752
G1 X84.423 Y44.315 E.01931
G1 X85 Y44.208 E.01841
G1 X85.467 Y44.275 E.01479
G1 X85.976 Y44.503 E.01751
G1 X86.39 Y44.878 E.01751
G1 X86.668 Y45.363 E.01752
G1 X86.783 Y45.909 E.0175
G1 X86.723 Y46.465 E.01752
G1 X86.68 Y46.597 E.00437
G1 X87.727 Y48.693 E.07345
G1 X87.787 Y48.946 E.00815
G1 X87.787 Y114.053 E2.0414
G1 X87.727 Y114.306 E.00815
G1 X86.707 Y116.348 E.07157
M204 P1000
G1 X86.261 Y116.397 F9000
M204 P800
;TYPE:External perimeter
G1 F1200
G1 X86.35 Y116.593 E.00677
G1 X86.41 Y117.031 E.01385
G1 X86.332 Y117.465 E.01383
G1 X86.124 Y117.854 E.01385
G1 X85.806 Y118.159 E.01381
G1 X85.407 Y118.353 E.0139
G1 X84.971 Y118.411 E.0138
G1 X84.536 Y118.334 E.01386
G1 X84.147 Y118.125 E.01386
G1 X83.876 Y117.854 E.01199
G1 X83.645 Y117.381 E.01651
G1 X83.59 Y116.971 E.01296
G1 X83.668 Y116.537 E.01385
G1 X83.739 Y116.397 E.00493
G1 X82.61 Y114.138 E.07919
G1 X82.59 Y114.053 E.00272
G1 X82.59 Y48.946 E2.0414
G1 X83.739 Y46.602 E.08184
G1 X83.65 Y46.406 E.00677
G1 X83.59 Y45.968 E.01385
G1 X83.668 Y45.534 E.01383
G1 X83.876 Y45.145 E.01385
G1 X84.2 Y44.837 E.01402
G1 X84.634 Y44.641 E.01492
G1 X85.03 Y44.588 E.01251
G1 X85.464 Y44.666 E.01383
G1 X85.853 Y44.874 E.01385
G1 X86.158 Y45.193 E.01383
G1 X86.35 Y45.59 E.01384
G1 X86.41 Y46.028 E.01384
G1 X86.332 Y46.462 E.01385
G1 X86.261 Y46.602 E.00493
G1 X87.39 Y48.861 E.07919
G1 X87.41 Y48.946 E.00272
G1 X87.41 Y114.053 E2.0414
G1 X87.39 Y114.138 E.00272
G1 X86.287 Y116.343 E.07731
M204 P1000
G1 X86.46 Y116.479 F9000
G1 E-2.24 F4200
;WIPE_START
G1 F7200
G1 X86.35 Y116.593 E-.14289
G1 X86.41 Y117.031 E-.24471
G1 X86.332 Y117.465 E-.24452
G1 X86.124 Y117.854 E-.24473
G1 X86.078 Y117.898 E-.03515
;WIPE_END
G1 E-.048 F4200
G1 Z.4 F720
G1 X88.182 Y137.758 F9000
G1 Z.2 F720
G1 E3.2 F2400
M204 P800
;TYPE:Perimeter
G1 F1200
G1 X87.939 Y137.677 E.00804
G1 X87.756 Y137.442 E.00933
G1 X87.713 Y137.224 E.00696
G1 X87.713 Y132.009 E.16351
G1 X87.132 Y131.474 E.02475
G1 X86.767 Y130.967 E.01961
G1 X86.46 Y130.343 E.0218
G1 X86.28 Y129.709 E.02068
G1 X86.214 Y129.051 E.02073
G1 X86.263 Y128.394 E.02065
G1 X86.404 Y127.835 E.01808
G1 X86.697 Y127.152 E.0233
G1 X87.069 Y126.606 E.02069
G1 X87.529 Y126.134 E.02069
G1 X88.064 Y125.748 E.02068
G1 X88.659 Y125.462 E.0207
G1 X89.293 Y125.282 E.02068
G1 X89.951 Y125.216 E.02073
G1 X90.608 Y125.265 E.02065
G1 X91.249 Y125.428 E.02074
G1 X91.85 Y125.699 E.02067
G1 X92.396 Y126.071 E.02069
G1 X92.868 Y126.531 E.02069
G1 X93.254 Y127.066 E.02068
G1 X93.54 Y127.661 E.0207
G1 X93.695 Y128.204 E.01771
G1 X93.783 Y128.922 E.02269
G1 X93.737 Y129.61 E.02162
G1 X93.574 Y130.251 E.02074
G1 X93.303 Y130.852 E.02066
G1 X92.932 Y131.398 E.02071
G1 X92.47 Y131.871 E.02071
G1 X92.287 Y132.009 E.0072
G1 X92.287 Y137.224 E.16351
G1 X92.244 Y137.442 E.00696
G1 X92.061 Y137.677 E.00933
G1 X91.721 Y137.79 E.01122
G1 X88.279 Y137.79 E.10795
G1 X88.239 Y137.777 E.0013
M204 P1000
G1 X88.279 Y137.413 F9000
M204 P800
;TYPE:External perimeter
G1 F1200
G1 X88.165 Y137.375 E.00374
G1 X88.09 Y137.224 E.00529
G1 X88.09 Y131.813 E.16966
G1 X87.796 Y131.604 E.01132
G1 X87.399 Y131.207 E.0176
G1 X87.076 Y130.751 E.01753
G1 X86.801 Y130.184 E.01975
G1 X86.644 Y129.611 E.01864
G1 X86.59 Y129.018 E.01865
G1 X86.638 Y128.426 E.01863
G1 X86.768 Y127.933 E.016
G1 X87.039 Y127.311 E.02125
G1 X87.377 Y126.823 E.01863
G1 X87.796 Y126.4 E.01864
G1 X88.281 Y126.057 E.01863
G1 X88.818 Y125.803 E.01864
G1 X89.391 Y125.646 E.01864
G1 X89.984 Y125.592 E.01865
G1 X90.576 Y125.64 E.01863
G1 X91.151 Y125.792 E.01866
G1 X91.691 Y126.041 E.01863
G1 X92.179 Y126.379 E.01863
G1 X92.602 Y126.798 E.01864
G1 X92.945 Y127.283 E.01863
G1 X93.199 Y127.82 E.01864
G1 X93.356 Y128.393 E.01864
G1 X93.407 Y128.955 E.01767
G1 X93.362 Y129.578 E.01959
G1 X93.21 Y130.153 E.01866
G1 X92.961 Y130.693 E.01863
G1 X92.623 Y131.182 E.01866
G1 X92.204 Y131.604 E.01864
G1 X91.91 Y131.813 E.01132
G1 X91.91 Y137.224 E.16966
G1 X91.835 Y137.375 E.00529
G1 X91.721 Y137.413 E.00374
G1 X88.339 Y137.413 E.10607
M204 P1000
G1 X88.199 Y137.501 F9000
G1 E-2.24 F4200
;WIPE_START
G1 F7200
G1 X88.165 Y137.375 E-.09819
G1 X88.09 Y137.224 E-.09345
G1 X88.09 Y135.925 E-.72036
;WIPE_END
G1 E-.048 F4200
G1 Z.4 F720
G1 X62.285 Y132.01 F9000
G1 Z.2 F720
G1 E3.2 F2400
M204 P800
;TYPE:Perimeter
G1 F1200
G1 X62.285 Y137.224 E.16349
G1 X62.242 Y137.442 E.00696
G1 X62.059 Y137.677 E.00933
G1 X61.719 Y137.79 E.01122
G1 X58.277 Y137.79 E.10795
G1 X57.937 Y137.677 E.01122
G1 X57.754 Y137.442 E.00933
G1 X57.711 Y137.224 E.00696
G1 X57.711 Y132.009 E.16351
G1 X57.13 Y131.474 E.02475
G1 X56.744 Y130.937 E.02075
G1 X56.458 Y130.343 E.02068
G1 X56.278 Y129.709 E.02068
G1 X56.212 Y129.051 E.02073
G1 X56.261 Y128.394 E.02065
G1 X56.424 Y127.753 E.02074
G1 X56.695 Y127.152 E.02067
G1 X57.067 Y126.606 E.02069
G1 X57.527 Y126.134 E.02069
G1 X58.062 Y125.748 E.02068
G1 X58.657 Y125.462 E.0207
G1 X59.291 Y125.282 E.02068
G1 X59.922 Y125.219 E.01986
G1 X60.602 Y125.264 E.02137
G1 X61.247 Y125.428 E.02088
G1 X61.848 Y125.699 E.02066
G1 X62.394 Y126.07 E.02071
G1 X62.867 Y126.532 E.02072
G1 X63.252 Y127.066 E.02065
G1 X63.538 Y127.661 E.0207
G1 X63.693 Y128.203 E.01769
G1 X63.781 Y128.922 E.0227
G1 X63.735 Y129.61 E.02162
G1 X63.572 Y130.251 E.02074
G1 X63.301 Y130.852 E.02066
G1 X62.93 Y131.398 E.0207
G1 X62.47 Y131.87 E.02067
G1 X62.333 Y131.974 E.00538
M204 P1000
G1 X61.94 Y131.791 F9000
M204 P800
;TYPE:External perimeter
G1 F1200
G1 X61.908 Y131.814 E.00123
G1 X61.908 Y137.224 E.16965
G1 X61.833 Y137.375 E.00529
G1 X61.719 Y137.413 E.00374
G1 X58.277 Y137.413 E.10795
G1 X58.163 Y137.375 E.00374
G1 X58.088 Y137.224 E.00529
G1 X58.088 Y131.813 E.16966
G1 X57.794 Y131.604 E.01132
G1 X57.397 Y131.207 E.0176
G1 X57.053 Y130.721 E.01867
G1 X56.799 Y130.184 E.01863
G1 X56.642 Y129.611 E.01864
G1 X56.588 Y129.018 E.01865
G1 X56.636 Y128.426 E.01863
G1 X56.788 Y127.851 E.01866
G1 X57.037 Y127.311 E.01863
G1 X57.375 Y126.823 E.01863
G1 X57.794 Y126.4 E.01864
G1 X58.279 Y126.057 E.01863
G1 X58.816 Y125.803 E.01864
G1 X59.389 Y125.646 E.01864
G1 X59.954 Y125.594 E.01778
G1 X60.572 Y125.64 E.01944
G1 X61.149 Y125.792 E.01871
G1 X61.689 Y126.041 E.01863
G1 X62.178 Y126.379 E.01866
G1 X62.6 Y126.798 E.01864
G1 X62.943 Y127.283 E.01861
G1 X63.197 Y127.82 E.01864
G1 X63.354 Y128.393 E.01864
G1 X63.405 Y128.955 E.01767
G1 X63.36 Y129.578 E.01959
G1 X63.208 Y130.153 E.01866
G1 X62.959 Y130.693 E.01863
G1 X62.621 Y131.182 E.01865
G1 X62.203 Y131.604 E.01861
G1 X61.989 Y131.756 E.00825
M204 P1000
G1 X61.945 Y131.83 F9000
G1 E-2.24 F4200
;WIPE_START
G1 F7200
G1 X61.908 Y131.814 E-.05497
G1 X61.908 Y133.36 E-.85703
;WIPE_END
G1 E-.048 F4200
G1 Z.4 F720
G1 X56.678 Y116.402 F9000
G1 Z.2 F720
G1 E3.2 F2400
M204 P800
;TYPE:Perimeter
G1 F1200
G1 X56.781 Y116.912 E.01634
G1 X56.721 Y117.468 E.01752
G1 X56.493 Y117.977 E.01751
G1 X56.118 Y118.391 E.0175
G1 X55.634 Y118.67 E.0175
G1 X55.085 Y118.784 E.0176
G1 X54.583 Y118.733 E.01581
G1 X54.362 Y118.67 E.00722
G1 X53.878 Y118.391 E.0175
G1 X53.503 Y117.977 E.0175
G1 X53.277 Y117.477 E.01722
G1 X53.21 Y116.96 E.01636
G1 X53.318 Y116.402 E.01783
G1 X52.271 Y114.306 E.07345
G1 X52.211 Y114.053 E.00815
G1 X52.211 Y48.946 E2.0414
G1 X52.271 Y48.693 E.00815
G1 X53.318 Y46.597 E.07345
G1 X53.215 Y46.087 E.01634
G1 X53.275 Y45.531 E.01752
G1 X53.503 Y45.022 E.01751
G1 X53.879 Y44.607 E.01752
G1 X54.421 Y44.315 E.01931
G1 X54.998 Y44.208 E.01841
G1 X55.465 Y44.275 E.01479
G1 X55.974 Y44.503 E.01751
G1 X56.388 Y44.878 E.01751
G1 X56.666 Y45.363 E.01752
G1 X56.781 Y45.909 E.0175
G1 X56.721 Y46.465 E.01752
G1 X56.678 Y46.598 E.00437
G1 X57.725 Y48.693 E.07345
G1 X57.785 Y48.946 E.00815
G1 X57.785 Y114.053 E2.0414
G1 X57.725 Y114.306 E.00815
G1 X56.705 Y116.348 E.07157
M204 P1000
G1 X56.259 Y116.397 F9000
M204 P800
;TYPE:External perimeter
G1 F1200
G1 X56.33 Y116.537 E.00493
G1 X56.408 Y117.031 E.01567
G1 X56.33 Y117.465 E.01383
G1 X56.122 Y117.854 E.01385
G1 X55.804 Y118.159 E.01381
G1 X55.405 Y118.353 E.0139
G1 X54.969 Y118.411 E.0138
G1 X54.534 Y118.334 E.01386
G1 X54.145 Y118.125 E.01386
G1 X53.84 Y117.806 E.01382
G1 X53.648 Y117.409 E.01384
G1 X53.588 Y116.971 E.01384
G1 X53.666 Y116.537 E.01385
G1 X53.737 Y116.397 E.00493
G1 X52.608 Y114.138 E.07919
G1 X52.588 Y114.053 E.00272
G1 X52.588 Y48.946 E2.0414
G1 X52.608 Y48.861 E.00272
M73 P0 R159
G1 X53.737 Y46.602 E.07919
G1 X53.648 Y46.406 E.00677
G1 X53.588 Y45.968 E.01385
G1 X53.666 Y45.534 E.01383
G1 X53.874 Y45.145 E.01385
G1 X54.198 Y44.837 E.01402
G1 X54.632 Y44.641 E.01492
G1 X55.028 Y44.588 E.01251
G1 X55.462 Y44.666 E.01383
G1 X55.851 Y44.874 E.01385
G1 X56.156 Y45.193 E.01383
G1 X56.348 Y45.59 E.01384
G1 X56.408 Y46.028 E.01384
G1 X56.33 Y46.462 E.01385
G1 X56.259 Y46.602 E.00493
G1 X57.388 Y48.861 E.07919
G1 X57.408 Y48.946 E.00272
G1 X57.408 Y114.053 E2.0414
G1 X57.388 Y114.138 E.00272
G1 X56.285 Y116.343 E.07731
M204 P1000
G1 X56.406 Y116.452 F9000
G1 E-2.24 F4200
;WIPE_START
G1 F7200
G1 X56.33 Y116.537 E-.11022
G1 X56.408 Y117.031 E-.27702
G1 X56.33 Y117.465 E-.24452
G1 X56.122 Y117.854 E-.24473
G1 X56.076 Y117.898 E-.03551
;WIPE_END
G1 E-.048 F4200
G1 Z.4 F720
G1 X117.715 Y132.01 F9000
G1 Z.2 F720
G1 E3.2 F2400
M204 P800
;TYPE:Perimeter
G1 F1200
G1 X117.134 Y131.474 E.02479
G1 X116.769 Y130.967 E.01958
G1 X116.462 Y130.343 E.0218
G1 X116.282 Y129.709 E.02068
G1 X116.216 Y129.051 E.02073
G1 X116.265 Y128.394 E.02065
G1 X116.406 Y127.835 E.01809
G1 X116.699 Y127.152 E.02329
G1 X117.07 Y126.607 E.02069
G1 X117.53 Y126.134 E.02065
G1 X118.067 Y125.748 E.02075
G1 X118.661 Y125.462 E.02068
G1 X119.295 Y125.282 E.02068
G1 X119.953 Y125.216 E.02073
G1 X120.61 Y125.265 E.02065
G1 X121.251 Y125.428 E.02074
G1 X121.852 Y125.699 E.02067
G1 X122.398 Y126.071 E.02069
G1 X122.87 Y126.531 E.02069
G1 X123.256 Y127.066 E.02068
G1 X123.542 Y127.661 E.0207
G1 X123.722 Y128.295 E.02068
G1 X123.79 Y129.002 E.02226
G1 X123.739 Y129.61 E.01914
G1 X123.576 Y130.251 E.02074
G1 X123.305 Y130.852 E.02066
G1 X122.934 Y131.398 E.02071
G1 X122.472 Y131.871 E.02071
G1 X122.289 Y132.009 E.0072
G1 X122.289 Y137.224 E.16351
G1 X122.246 Y137.442 E.00696
G1 X122.063 Y137.677 E.00933
G1 X121.723 Y137.79 E.01122
G1 X118.281 Y137.79 E.10795
G1 X117.941 Y137.677 E.01122
G1 X117.758 Y137.442 E.00933
G1 X117.715 Y137.224 E.00696
G1 X117.715 Y132.07 E.16161
M204 P1000
G1 X118.091 Y131.813 F9000
M204 P800
;TYPE:External perimeter
G1 F1200
G1 X117.797 Y131.604 E.0113
G1 X117.4 Y131.207 E.01758
G1 X117.078 Y130.751 E.01752
G1 X116.803 Y130.184 E.01975
G1 X116.646 Y129.611 E.01864
G1 X116.592 Y129.018 E.01865
G1 X116.64 Y128.426 E.01862
G1 X116.77 Y127.933 E.016
G1 X117.041 Y127.311 E.02125
G1 X117.379 Y126.823 E.01863
G1 X117.797 Y126.401 E.01862
