; generated by PrusaSlicer 2.5.0+win64 on 2022-09-25 at 10:32:28 UTC


;
;

;
;
; 

; external perimeters extrusion width = 0.45mm
; perimeters extrusion width = 0.45mm
; infill extrusion width = 0.45mm
; solid infill extrusion width = 0.45mm
; top infill extrusion width = 0.40mm
; first layer extrusion width = 0.42mm

M73 P0 R10
M201 X2500 Y2500 Z400 E5000 ; sets maximum accelerations, mm/sec^2
M203 X180 Y180 Z12 E80 ; sets maximum feedrates, mm / sec
M204 P1250 R1250 T2500 ; sets acceleration (P, T) and retract acceleration (R), mm/sec^2
M205 X8.00 Y8.00 Z2.00 E10.00 ; sets the jerk limits, mm/sec
M205 S0 T0 ; sets the minimum extruding and travel feed rate, mm/sec
M107
;TYPE:Custom
M862.3 P "MINI" ; printer model check
G90 ; use absolute coordinates
M83 ; extruder relative mode
M104 S170 ; set extruder temp for bed leveling
M140 S60 ; set bed temp
M109 R170 ; wait for bed leveling temp
M190 S60 ; wait for bed temp
M204 T1250 ; set travel acceleration
G28 ; home all without mesh bed level
G29 ; mesh bed leveling 
M204 T2500 ; restore travel acceleration
M104 S215 ; set extruder temp
G92 E0
G1 Y-2 X179 F2400
G1 Z3 F720
M109 S215 ; wait for extruder temp

; intro line
G1 X170 F1000
G1 Z0.2 F720
G1 X110 E8 F900
G1 X40 E10 F700
G92 E0

M221 S95 ; set flow
G21 ; set units to millimeters
G90 ; use absolute coordinates
M83 ; use relative distances for extrusion
M900 K0.2 ; Filament gcode LA 1.5
; ; Filament gcode LA 1.0
M107
;LAYER_CHANGE
;Z:0.2
;HEIGHT:0.2
;BEFORE_LAYER_CHANGE
G92 E0.0
;0.2


M73 P1 R10
G1 E-3.2 F4200
M73 P2 R10
G1 Z.2 F720
;AFTER_LAYER_CHANGE
;0.2
G1 Z.4
G1 X80.58 Y84.043 F9000
G1 Z.2 F720
G1 E3.2 F2400
M204 P800
;TYPE:Skirt/Brim
;WIDTH:0.42
G1 F1200
G1 X81.58 Y83.128 E.0425
G1 X87.289 Y79.832 E.20669
G1 X88.581 Y79.424 E.04249
G1 X90.12 Y79.424 E.04824
G1 X91.378 Y79.812 E.04128
G1 X98.884 Y84.019 E.26979
G1 X100.017 Y85.105 E.04923
G1 X100.484 Y86.75 E.05362
G1 X100.484 Y93.25 E.2038
G1 X100.09 Y94.77 E.04923
G1 X98.884 Y95.981 E.05359
G1 X91.384 Y100.187 E.26963
G1 X90.125 Y100.576 E.0413
G1 X89.176 Y100.625 E.0298
G1 X88.581 Y100.576 E.01871
G1 X87.289 Y100.168 E.04249
G1 X81.58 Y96.872 E.2067
G1 X80.58 Y95.957 E.0425
G1 X80.296 Y95.551 E.01553
M73 P3 R10
G1 X79.812 Y94.628 E.03266
G1 X79.516 Y93.299 E.04271
G1 X79.516 Y86.701 E.20685
G1 X79.81 Y85.377 E.04253
G1 X80.02 Y84.926 E.01562
G1 X80.548 Y84.094 E.03089
M204 P1000
G1 X80.866 Y84.297 F9000
M204 P800
G1 F1200
G1 X81.768 Y83.454 E.03871
G1 X87.477 Y80.158 E.20669
G1 X88.614 Y79.8 E.03737
G1 X90.087 Y79.8 E.04618
G1 X91.193 Y80.141 E.03631
G1 X98.699 Y84.347 E.26979
G1 X99.744 Y85.383 E.04612
G1 X100.107 Y86.75 E.04435
G1 X100.107 Y93.25 E.2038
G1 X99.714 Y94.667 E.04612
G1 X98.7 Y95.652 E.04433
G1 X91.199 Y99.859 E.26963
G1 X90.092 Y100.2 E.03633
G1 X89.198 Y100.249 E.02809
G1 X88.614 Y100.2 E.01837
G1 X87.477 Y99.842 E.03737
G1 X81.768 Y96.546 E.2067
G1 X80.889 Y95.74 E.03738
G1 X80.605 Y95.334 E.01553
G1 X80.154 Y94.468 E.03063
G1 X79.893 Y93.299 E.03757
G1 X79.893 Y86.701 E.20685
G1 X80.151 Y85.537 E.03741
G1 X80.362 Y85.085 E.01562
G1 X80.833 Y84.347 E.02745
M204 P1000
G1 X81.15 Y84.551 F9000
M204 P800
G1 F1200
G1 X81.198 Y84.476 E.00279
G1 X81.957 Y83.781 E.03226
G1 X87.666 Y80.485 E.20669
G1 X88.647 Y80.176 E.03226
G1 X90.054 Y80.175 E.04412
G1 X91.009 Y80.47 E.03134
G1 X98.515 Y84.676 E.26979
G1 X99.464 Y85.657 E.04278
G1 X99.73 Y86.75 E.03527
G1 X99.73 Y93.25 E.2038
G1 X99.338 Y94.557 E.04278
G1 X98.516 Y95.323 E.03525
G1 X91.015 Y99.53 E.26963
G1 X90.059 Y99.824 E.03135
G1 X89.22 Y99.873 E.02637
G1 X88.647 Y99.824 E.01802
G1 X87.666 Y99.515 E.03226
G1 X81.957 Y96.219 E.2067
G1 X81.198 Y95.524 E.03226
M73 P4 R10
G1 X80.914 Y95.118 E.01553
G1 X80.495 Y94.308 E.02859
G1 X80.27 Y93.299 E.03242
G1 X80.27 Y86.701 E.20685
G1 X80.493 Y85.696 E.03228
G1 X80.704 Y85.245 E.01562
G1 X81.117 Y84.601 E.02398
M204 P1000
; printing object FlightDash Knob Mixture.stl id:0 copy 0
G1 E-2.24 F4200
;WIPE_START
G1 F7200
G1 X81.198 Y84.476 E-.08261
G1 X81.957 Y83.781 E-.57019
G1 X82.362 Y83.547 E-.2592
;WIPE_END
G1 E-.048 F4200
G1 Z.4 F720
G1 X95.556 Y87.374 F9000
G1 Z.2 F720
G1 E3.2 F2400
M204 P800
;TYPE:Perimeter
;WIDTH:0.419999
G1 F1200
G1 X95.708 Y87.487 E.00597
G1 X95.94 Y87.537 E.00743
G1 X96.566 Y87.537 E.01962
G1 X96.566 Y92.463 E.15445
G1 X95.94 Y92.463 E.01962
G1 X95.709 Y92.512 E.00742
G1 X95.512 Y92.659 E.00767
G1 X95.219 Y93.237 E.02034
G1 X94.168 Y93.159 E.03305
G1 X93.263 Y93.248 E.0285
G1 X92.37 Y93.497 E.02905
G1 X91.541 Y93.893 E.02883
G1 X90.793 Y94.427 E.02881
G1 X90.147 Y95.085 E.02891
G1 X89.626 Y95.845 E.02889
G1 X89.353 Y96.43 E.02025
G1 X89.031 Y95.76 E.02333
G1 X88.495 Y95.009 E.02891
G1 X87.835 Y94.362 E.02897
G1 X87.077 Y93.842 E.02883
G1 X86.238 Y93.461 E.02889
G1 X85.347 Y93.231 E.02885
G1 X84.429 Y93.158 E.02888
G1 X83.788 Y93.215 E.02018
G1 X84.207 Y92.601 E.02328
G1 X84.589 Y91.762 E.02891
G1 X84.819 Y90.87 E.02888
G1 X84.891 Y89.948 E.02902
G1 X84.801 Y89.029 E.02895
G1 X84.554 Y88.142 E.02887
G1 X84.158 Y87.314 E.02879
G1 X83.788 Y86.785 E.02022
G1 X84.529 Y86.841 E.0233
G1 X85.447 Y86.751 E.02892
G1 X86.334 Y86.504 E.02886
G1 X87.164 Y86.108 E.02884
G1 X87.912 Y85.573 E.02885
G1 X88.558 Y84.915 E.0289
G1 X89.08 Y84.155 E.02889
G1 X89.353 Y83.57 E.02026
G1 X89.675 Y84.24 E.02332
G1 X90.211 Y84.991 E.02892
G1 X90.869 Y85.636 E.02887
G1 X91.633 Y86.159 E.02906
G1 X92.467 Y86.539 E.02873
G1 X93.263 Y86.752 E.02582
G1 X94.278 Y86.841 E.03195
G1 X95.196 Y86.752 E.02891
G1 X95.51 Y87.336 E.02079
M204 P1000
G1 X95.798 Y87.095 F9000
M204 P800
;TYPE:External perimeter
G1 F1200
G1 X95.94 Y87.16 E.00491
G1 X96.943 Y87.16 E.03144
G1 X96.943 Y92.84 E.17809
G1 X95.94 Y92.84 E.03144
G1 X95.863 Y92.857 E.00247
G1 X95.769 Y92.949 E.00412
G1 X95.389 Y93.69 E.02611
G1 X95.066 Y93.606 E.01047
G1 X94.201 Y93.535 E.02722
G1 X93.36 Y93.612 E.02646
G1 X92.53 Y93.838 E.027
G1 X91.757 Y94.202 E.02677
G1 X91.06 Y94.693 E.02676
G1 X90.456 Y95.301 E.02685
G1 X89.967 Y96.004 E.02685
G1 X89.62 Y96.75 E.02579
G1 X89.531 Y97.073 E.01051
G1 X89.176 Y97.073 E.01112
G1 X89.087 Y96.75 E.0105
G1 X88.722 Y95.976 E.02684
G1 X88.228 Y95.276 E.02685
G1 X87.619 Y94.671 E.02692
G1 X86.918 Y94.183 E.02676
G1 X86.141 Y93.825 E.02685
G1 X85.314 Y93.606 E.02681
G1 X84.461 Y93.534 E.02685
G1 X83.643 Y93.606 E.02574
G1 X83.316 Y93.69 E.01058
G1 X83.14 Y93.385 E.01103
G1 X83.377 Y93.145 E.01057
G1 X83.865 Y92.442 E.02684
G1 X84.225 Y91.665 E.02685
G1 X84.444 Y90.837 E.02684
G1 X84.516 Y89.981 E.02694
G1 X84.437 Y89.127 E.0269
G1 X84.212 Y88.301 E.02681
G1 X83.849 Y87.53 E.02675
G1 X83.377 Y86.855 E.02582
G1 X83.14 Y86.615 E.01057
G1 X83.316 Y86.31 E.01103
G1 X83.643 Y86.394 E.01057
G1 X84.496 Y86.465 E.02686
G1 X85.349 Y86.387 E.02686
G1 X86.174 Y86.162 E.02681
G1 X86.947 Y85.799 E.02678
G1 X87.646 Y85.306 E.02681
G1 X88.25 Y84.699 E.02683
G1 X88.738 Y83.996 E.02685
G1 X89.087 Y83.25 E.02582
G1 X89.176 Y82.927 E.0105
G1 X89.531 Y82.927 E.01112
G1 X89.62 Y83.25 E.01051
G1 X89.984 Y84.024 E.02682
G1 X90.477 Y84.724 E.02686
G1 X91.085 Y85.327 E.02683
G1 X91.793 Y85.818 E.02702
G1 X92.565 Y86.175 E.02667
G1 X93.36 Y86.388 E.02582
G1 X94.245 Y86.465 E.02785
G1 X95.066 Y86.394 E.02582
G1 X95.389 Y86.31 E.01048
G1 X95.56 Y86.604 E.01065
G1 X95.771 Y87.041 E.01522
M204 P1000
G1 X95.778 Y87.25 F9000
G1 E-2.24 F4200
;WIPE_START
G1 F7200
G1 X95.94 Y87.16 E-.11445
G1 X96.943 Y87.16 E-.55567
G1 X96.943 Y87.596 E-.24188
;WIPE_END
G1 E-.048 F4200
G1 Z.4 F720
G1 X96.453 Y88.428 F9000
G1 Z.2 F720
G1 E3.2 F2400
M204 P800
;TYPE:Solid infill
;WIDTH:0.427391
G1 F1200
G1 X95.821 Y87.797 E.02856
G1 X95.596 Y87.748 E.00736
G1 X95.409 Y87.634 E.00701
G1 X95.297 Y87.525 E.00499
G1 X95.174 Y87.336 E.0072
G1 X95.044 Y87.058 E.00982
G1 X94.577 Y87.096 E.01499
G1 X96.283 Y88.802 E.07713
G1 X96.283 Y89.346 E.01738
M73 P5 R10
G1 X94.048 Y87.111 E.10103
G1 X93.452 Y87.058 E.01914
G1 X96.283 Y89.89 E.128
G1 X96.283 Y90.433 E.01738
G1 X92.756 Y86.906 E.15946
G1 X92.322 Y86.79 E.01437
G1 X91.9 Y86.594 E.01487
G1 X96.283 Y90.977 E.19816
G1 X96.283 Y91.521 E.01738
G1 X89.222 Y84.459 E.31925
G1 X88.994 Y84.776 E.01246
G1 X96.283 Y92.065 E.32952
G1 X96.283 Y92.18 E.0037
G1 X95.868 Y92.193 E.01327
G1 X88.767 Y85.092 E.32104
G1 X88.7 Y85.186 E.00369
G1 X88.508 Y85.377 E.00865
G1 X95.464 Y92.333 E.31449
G1 X95.296 Y92.475 E.00702
G1 X95.204 Y92.617 E.00542
G1 X88.234 Y85.647 E.31512
G1 X88.053 Y85.827 E.00818
G1 X87.945 Y85.902 E.00418
G1 X94.98 Y92.937 E.31806
G1 X94.387 Y92.887 E.01903
G1 X87.625 Y86.125 E.30575
G1 X87.304 Y86.348 E.01249
G1 X93.861 Y92.905 E.29645
G1 X93.362 Y92.949 E.01602
G1 X86.943 Y86.531 E.2902
G1 X86.572 Y86.703 E.01309
G1 X92.919 Y93.05 E.28695
G1 X92.49 Y93.165 E.01419
M73 P6 R10
G1 X86.172 Y86.847 E.28564
G1 X85.745 Y86.963 E.01416
G1 X92.096 Y93.315 E.28715
G1 X91.724 Y93.487 E.01309
G1 X85.287 Y87.049 E.29104
G1 X84.792 Y87.099 E.01589
G1 X91.369 Y93.675 E.29733
G1 X91.048 Y93.898 E.01249
M73 P6 R9
G1 X84.491 Y87.341 E.29643
G1 X84.86 Y88.156 E.02858
G1 X84.895 Y88.289 E.00439
G1 X90.727 Y94.121 E.26366
G1 X90.443 Y94.38 E.0123
G1 X85.09 Y89.027 E.24202
G1 X85.144 Y89.625 E.0192
G1 X90.17 Y94.651 E.22722
G1 X90.005 Y94.814 E.00742
G1 X89.915 Y94.94 E.00494
G1 X85.161 Y90.186 E.21495
G1 X85.117 Y90.685 E.01604
G1 X89.688 Y95.257 E.20666
G1 X89.461 Y95.573 E.01246
G1 X85.042 Y91.154 E.19977
G1 X84.928 Y91.585 E.01422
G1 X86.702 Y93.358 E.08017
G1 X86.389 Y93.212 E.01104
G1 X85.871 Y93.071 E.01714
G1 X84.793 Y91.993 E.04876
G1 X84.623 Y92.367 E.01313
G1 X85.198 Y92.941 E.02597
G1 X84.594 Y92.881 E.01942
G1 X84.326 Y92.613 E.01211
M204 P1000
; stop printing object FlightDash Knob Mixture.stl id:0 copy 0
M106 S84.15
;LAYER_CHANGE
;Z:0.4
;HEIGHT:0.2
;BEFORE_LAYER_CHANGE
G92 E0.0
;0.4


G1 E-2.24 F4200
;WIPE_START
G1 F7200
G1 X84.594 Y92.881 E-.20986
G1 X85.198 Y92.941 E-.33657
G1 X84.731 Y92.475 E-.36556
;WIPE_END
G1 E-.048 F4200
G1 Z.4 F720
;AFTER_LAYER_CHANGE
;0.4
M104 S210 ; set temperature
G1 Z.6
G1 X79.516 Y92.475 F9000
G1 Z.4 F720
G1 E3.2 F2400
;TYPE:Skirt/Brim
;WIDTH:0.42
G1 F2287
G1 X79.516 Y86.701 E.18103
G1 X79.81 Y85.377 E.04253
G1 X80.02 Y84.926 E.01562
G1 X80.58 Y84.043 E.03277
G1 X81.58 Y83.128 E.0425
G1 X87.289 Y79.832 E.20669
G1 X88.581 Y79.424 E.04249
G1 X90.12 Y79.424 E.04824
G1 X91.378 Y79.812 E.04128
G1 X98.884 Y84.019 E.26979
G1 X100.017 Y85.105 E.04923
M73 P7 R9
G1 X100.484 Y86.75 E.05362
G1 X100.484 Y93.25 E.2038
G1 X100.09 Y94.77 E.04923
G1 X98.884 Y95.981 E.05359
G1 X91.384 Y100.187 E.26963
G1 X90.125 Y100.576 E.0413
G1 X89.176 Y100.625 E.0298
G1 X88.581 Y100.576 E.01871
G1 X87.289 Y100.168 E.04249
G1 X81.58 Y96.872 E.2067
G1 X80.58 Y95.957 E.0425
G1 X80.296 Y95.551 E.01553
G1 X79.812 Y94.628 E.03266
G1 X79.516 Y93.299 E.04271
G1 X79.516 Y92.535 E.02395
G1 X79.893 Y92.535 F9000
G1 F2287
G1 X79.893 Y86.701 E.18291
G1 X80.151 Y85.537 E.03741
G1 X80.362 Y85.085 E.01562
G1 X80.889 Y84.26 E.03071
G1 X81.768 Y83.454 E.03738
G1 X87.477 Y80.158 E.20669
G1 X88.614 Y79.8 E.03737
G1 X90.087 Y79.8 E.04618
G1 X91.193 Y80.141 E.03631
G1 X98.699 Y84.347 E.26979
G1 X99.744 Y85.383 E.04612
G1 X100.107 Y86.75 E.04435
G1 X100.107 Y93.25 E.2038
G1 X99.714 Y94.667 E.04612
G1 X98.7 Y95.652 E.04433
G1 X91.199 Y99.859 E.26963
G1 X90.092 Y100.2 E.03633
G1 X89.198 Y100.249 E.02809
G1 X88.614 Y100.2 E.01837
G1 X87.477 Y99.842 E.03737
G1 X81.768 Y96.546 E.2067
G1 X80.889 Y95.74 E.03738
G1 X80.605 Y95.334 E.01553
G1 X80.154 Y94.468 E.03063
G1 X79.893 Y93.299 E.03757
G1 X79.893 Y92.595 E.02206
G1 X80.27 Y92.595 F9000
G1 F2287
G1 X80.27 Y86.701 E.18479
G1 X80.493 Y85.696 E.03228
G1 X80.704 Y85.245 E.01562
G1 X81.198 Y84.476 E.02866
G1 X81.957 Y83.781 E.03226
G1 X87.666 Y80.485 E.20669
G1 X88.647 Y80.176 E.03226
G1 X90.054 Y80.175 E.04412
G1 X91.009 Y80.47 E.03134
G1 X98.515 Y84.676 E.26979
G1 X99.464 Y85.657 E.04278
G1 X99.73 Y86.75 E.03527
G1 X99.73 Y93.25 E.2038
G1 X99.338 Y94.557 E.04278
G1 X98.516 Y95.323 E.03525
G1 X91.015 Y99.53 E.26963
G1 X90.059 Y99.824 E.03135
G1 X89.22 Y99.873 E.02637
G1 X88.647 Y99.824 E.01802
G1 X87.666 Y99.515 E.03226
G1 X81.957 Y96.219 E.2067
G1 X81.198 Y95.524 E.03226
G1 X80.914 Y95.118 E.01553
G1 X80.495 Y94.308 E.02859
G1 X80.27 Y93.299 E.03242
G1 X80.27 Y92.655 E.02018
; printing object FlightDash Knob Mixture.stl id:0 copy 0
G1 E-2.24 F4200
;WIPE_START
G1 F7200
G1 X80.27 Y91.009 E-.912
;WIPE_END
G1 E-.048 F4200
G1 Z.6 F720
G1 X95.664 Y87.22 F9000
G1 Z.4 F720
G1 E3.2 F2400
M204 P800
;TYPE:Perimeter
;WIDTH:0.449999
G1 F2287
G1 X95.824 Y87.331 E.00659
G1 X96.067 Y87.382 E.00843
G1 X96.721 Y87.382 E.02211
G1 X96.721 Y92.618 E.17723
G1 X96.067 Y92.618 E.02211
G1 X95.824 Y92.669 E.00843
G1 X95.691 Y92.748 E.00522
G1 X95.514 Y92.97 E.00963
G1 X95.295 Y93.431 E.01726
G1 X94.834 Y93.363 E.01579
G1 X94.175 Y93.314 E.02235
G1 X93.286 Y93.402 E.03024
G1 X92.42 Y93.644 E.03045
G1 X91.615 Y94.03 E.0302
G1 X90.89 Y94.549 E.03018
G1 X90.264 Y95.188 E.03029
G1 X89.759 Y95.927 E.03029
G1 X89.353 Y96.862 E.0345
G1 X89.28 Y96.64 E.00789
G1 X88.894 Y95.834 E.03026
G1 X88.373 Y95.106 E.03029
G1 X87.732 Y94.479 E.03036
G1 X86.996 Y93.975 E.0302
G1 X86.181 Y93.606 E.03027
G1 X85.316 Y93.384 E.03024
G1 X84.423 Y93.314 E.03032
G1 X83.41 Y93.433 E.03453
G1 X83.569 Y93.258 E.00799
G1 X84.074 Y92.52 E.03027
G1 X84.444 Y91.705 E.03029
G1 X84.666 Y90.839 E.03026
G1 X84.735 Y89.944 E.0304
G1 X84.647 Y89.052 E.03033
G1 X84.406 Y88.192 E.03025
G1 X84.019 Y87.386 E.03025
G1 X83.41 Y86.567 E.03455
G1 X83.641 Y86.617 E.008
G1 X84.533 Y86.685 E.03028
G1 X85.424 Y86.597 E.0303
G1 X86.284 Y86.356 E.03023
G1 X87.089 Y85.971 E.03022
G1 X87.815 Y85.451 E.03023
G1 X88.442 Y84.812 E.03028
G1 X88.947 Y84.073 E.03031
G1 X89.353 Y83.138 E.03449
G1 X89.426 Y83.36 E.00789
G1 X89.812 Y84.166 E.03025
G1 X90.333 Y84.894 E.03031
G1 X90.972 Y85.519 E.03025
G1 X91.715 Y86.026 E.03046
G1 X92.524 Y86.394 E.0301
G1 X93.286 Y86.598 E.02669
G1 X94.282 Y86.685 E.03383
G1 X95.295 Y86.569 E.03452
G1 X95.619 Y87.181 E.02345
M204 P1000
M73 P8 R9
G1 X95.92 Y86.912 F9000
M204 P800
;TYPE:External perimeter
G1 F1800
G1 X96.067 Y86.975 E.00543
G1 X97.128 Y86.975 E.03589
G1 X97.128 Y93.025 E.20479
G1 X96.067 Y93.025 E.03589
G1 X95.942 Y93.068 E.00449
G1 X95.721 Y93.491 E.01614
G1 X95.467 Y93.902 E.01637
G1 X95.189 Y93.828 E.00974
G1 X94.798 Y93.768 E.01338
G1 X94.211 Y93.72 E.01993
G1 X93.391 Y93.795 E.02786
G1 X92.592 Y94.014 E.02806
G1 X91.849 Y94.363 E.0278
G1 X91.178 Y94.837 E.02778
G1 X90.598 Y95.421 E.02789
G1 X90.128 Y96.098 E.02788
G1 X89.795 Y96.812 E.02665
G1 X89.676 Y97.246 E.01524
G1 X89.389 Y97.271 E.00974
G1 X89.031 Y97.246 E.01215
G1 X88.911 Y96.813 E.01522
G1 X88.56 Y96.068 E.02788
G1 X88.085 Y95.394 E.02789
G1 X87.498 Y94.812 E.02797
G1 X86.824 Y94.344 E.02779
G1 X86.076 Y93.999 E.02789
G1 X85.28 Y93.789 E.02785
G1 X84.46 Y93.72 E.02788
G1 X83.677 Y93.789 E.0266
G1 X83.239 Y93.902 E.0153
G1 X83.075 Y93.668 E.0097
G1 X82.918 Y93.346 E.0121
G1 X83.235 Y93.025 E.0153
G1 X83.705 Y92.348 E.02788
G1 X84.051 Y91.6 E.02789
G1 X84.261 Y90.804 E.02788
G1 X84.33 Y89.98 E.02799
G1 X84.254 Y89.158 E.02795
G1 X84.037 Y88.364 E.02784
G1 X83.687 Y87.622 E.02778
G1 X83.235 Y86.975 E.02669
G1 X82.918 Y86.654 E.0153
G1 X83.038 Y86.395 E.00966
G1 X83.239 Y86.098 E.01215
G1 X83.676 Y86.211 E.01528
G1 X84.498 Y86.279 E.0279
G1 X85.318 Y86.204 E.0279
G1 X86.112 Y85.987 E.02784
G1 X86.855 Y85.637 E.02782
G1 X87.527 Y85.163 E.02785
G1 X88.108 Y84.579 E.02787
G1 X88.578 Y83.902 E.02788
G1 X88.911 Y83.187 E.02669
G1 X89.031 Y82.754 E.01522
G1 X89.317 Y82.729 E.00973
G1 X89.676 Y82.754 E.01218
G1 X89.795 Y83.188 E.01523
G1 X90.145 Y83.932 E.02785
G1 X90.621 Y84.606 E.0279
G1 X91.205 Y85.185 E.02786
G1 X91.887 Y85.658 E.02808
G1 X92.63 Y86.001 E.02769
G1 X93.391 Y86.205 E.02669
G1 X94.246 Y86.279 E.02905
G1 X95.032 Y86.211 E.0267
G1 X95.467 Y86.098 E.01519
G1 X95.667 Y86.396 E.01215
G1 X95.894 Y86.858 E.01743
M204 P1000
G1 X95.904 Y87.071 F9000
G1 E-2.24 F4200
;WIPE_START
G1 F7200
G1 X96.067 Y86.975 E-.11607
G1 X97.128 Y86.975 E-.5876
G1 X97.128 Y87.351 E-.20833
;WIPE_END
G1 E-.048 F4200
G1 Z.6 F720
